(.../pcb-gcode-3.6.0.4/pcb-gcode.ulp)
(Copyright 2005 - 2012 by John Johnson)
(See readme.txt for licensing terms.)
(This file generated from the board:)
(.../reflowOvenController/hardware/ReflowController.brd)
(Current profile is .../pcb-gcode-3.6.0.4/profiles/emc.pp  )
(This file generated 7/10/16 12:30 PM)
(Settings from pcb-machine.h)
(  Tool Size)
(0.1778 )
(Z Axis Settings)
(  High     Up        Down     Drill)
(12.7000 	2.5400 	-0.1778 	-0.8128 )
(spindle on time = 3.0000)
(milling depth = -0.2540)
(text depth = -0.1270)
(tool change at 12.7000 15.2400 25.4000 )
(feed rate xy = F508.00 )
(feed rate z  = F254.00 )
(Settings from pcb-defaults.h)
(isolate min = 0.0254)
(isolate max = 0.5080)
(isolate step = 0.1270)
(Generated bottom outlines, bottom drill, )
(Unit of measure: mm)
(Metric Mode)
G21
(Absolute Coordinates)
G90
G00 X0.0000 Y0.0000 
M03
G04 P3.000000
G00 Z2.5400 
G00 X-42.6236 Y8.1308 
G01 Z-0.1778 F254.00 
G01 X-42.7609 Y7.7994 F508.00 
G01 X-42.7609 Y7.4406 
G01 X-42.6236 Y7.1092 
G01 X-42.3700 Y6.8556 
G01 X-42.0386 Y6.7183 
G01 X-40.4606 Y6.7183 
G01 X-40.1292 Y6.8556 
G01 X-39.8756 Y7.1092 
G01 X-39.7383 Y7.4406 
G01 X-39.7383 Y7.7994 
G01 X-39.8756 Y8.1308 
G01 X-40.1292 Y8.3844 
G01 X-40.4606 Y8.5217 
G01 X-42.0386 Y8.5217 
G01 X-42.3700 Y8.3844 
G01 X-42.6236 Y8.1308 
G00 Z2.5400 
G00 X-41.9305 Y8.3439 
G01 Z-0.1778 F254.00 
G01 X-40.5687 Y8.3439 F508.00 
G01 X-40.4288 Y8.3161 
G01 X-40.2971 Y8.2615 
G01 X-40.1785 Y8.1823 
G01 X-40.0777 Y8.0815 
G01 X-39.9985 Y7.9629 
G01 X-39.9439 Y7.8312 
G01 X-39.9161 Y7.6913 
G01 X-39.9161 Y7.5487 
G01 X-39.9439 Y7.4088 
G01 X-39.9985 Y7.2771 
G01 X-40.0777 Y7.1585 
G01 X-40.1785 Y7.0577 
G01 X-40.2971 Y6.9785 
G01 X-40.4288 Y6.9239 
G01 X-40.5687 Y6.8961 
G01 X-41.9305 Y6.8961 
G01 X-42.0704 Y6.9239 
G01 X-42.2021 Y6.9785 
G01 X-42.3207 Y7.0577 
G01 X-42.4215 Y7.1585 
G01 X-42.5007 Y7.2771 
G01 X-42.5553 Y7.4088 
G01 X-42.5831 Y7.5487 
G01 X-42.5831 Y7.6913 
G01 X-42.5553 Y7.8312 
G01 X-42.5007 Y7.9629 
G01 X-42.4215 Y8.0815 
G01 X-42.3207 Y8.1823 
G01 X-42.2021 Y8.2615 
G01 X-42.0704 Y8.3161 
G01 X-41.9305 Y8.3439 
G00 Z2.5400 
G00 X-96.0069 Y27.5007 
G01 Z-0.1778 F254.00 
G01 X-95.5320 Y27.3040 F508.00 
G01 X-95.0180 Y27.3040 
G01 X-94.5431 Y27.5007 
G01 X-94.1796 Y27.8642 
G01 X-93.9829 Y28.3391 
G01 X-93.9829 Y28.8531 
G01 X-94.1796 Y29.3280 
G01 X-94.5431 Y29.6915 
G01 X-95.0180 Y29.8882 
G01 X-95.5320 Y29.8882 
G01 X-96.0069 Y29.6915 
G01 X-96.3704 Y29.3280 
G01 X-96.5671 Y28.8531 
G01 X-96.5671 Y28.3391 
G01 X-96.3704 Y27.8642 
G01 X-96.0069 Y27.5007 
G00 Z2.5400 
G00 X-96.3893 Y28.5084 
G01 Z-0.1778 F254.00 
G01 X-96.3893 Y28.6838 F508.00 
G01 X-96.3619 Y28.8570 
G01 X-96.3077 Y29.0238 
G01 X-96.2280 Y29.1801 
G01 X-96.1249 Y29.3220 
G01 X-96.0009 Y29.4460 
G01 X-95.8590 Y29.5491 
G01 X-95.7027 Y29.6288 
G01 X-95.5359 Y29.6830 
G01 X-95.3627 Y29.7104 
G01 X-95.1873 Y29.7104 
G01 X-95.0141 Y29.6830 
G01 X-94.8473 Y29.6288 
G01 X-94.6910 Y29.5491 
G01 X-94.5491 Y29.4460 
G01 X-94.4251 Y29.3220 
G01 X-94.3220 Y29.1801 
G01 X-94.2423 Y29.0238 
G01 X-94.1881 Y28.8570 
G01 X-94.1607 Y28.6838 
G01 X-94.1607 Y28.5084 
G01 X-94.1881 Y28.3352 
G01 X-94.2423 Y28.1684 
G01 X-94.3220 Y28.0121 
G01 X-94.4251 Y27.8702 
G01 X-94.5491 Y27.7462 
G01 X-94.6910 Y27.6431 
G01 X-94.8473 Y27.5634 
G01 X-95.0141 Y27.5092 
G01 X-95.1873 Y27.4818 
G01 X-95.3627 Y27.4818 
G01 X-95.5359 Y27.5092 
G01 X-95.7027 Y27.5634 
G01 X-95.8590 Y27.6431 
G01 X-96.0009 Y27.7462 
G01 X-96.1249 Y27.8702 
G01 X-96.2280 Y28.0121 
G01 X-96.3077 Y28.1684 
G01 X-96.3619 Y28.3352 
G01 X-96.3893 Y28.5084 
G00 Z2.5400 
G00 X-96.0069 Y17.3407 
G01 Z-0.1778 F254.00 
G01 X-95.5320 Y17.1440 F508.00 
G01 X-95.0180 Y17.1440 
G01 X-94.5431 Y17.3407 
G01 X-94.1796 Y17.7042 
G01 X-93.9829 Y18.1791 
G01 X-93.9829 Y18.6931 
G01 X-94.1796 Y19.1680 
G01 X-94.5431 Y19.5315 
G01 X-95.0180 Y19.7282 
G01 X-95.5320 Y19.7282 
G01 X-96.0069 Y19.5315 
G01 X-96.3704 Y19.1680 
G01 X-96.5671 Y18.6931 
G01 X-96.5671 Y18.1791 
G01 X-96.3704 Y17.7042 
G01 X-96.0069 Y17.3407 
G00 Z2.5400 
G00 X-96.3893 Y18.3484 
G01 Z-0.1778 F254.00 
G01 X-96.3893 Y18.5238 F508.00 
G01 X-96.3619 Y18.6970 
G01 X-96.3077 Y18.8638 
G01 X-96.2280 Y19.0201 
G01 X-96.1249 Y19.1620 
G01 X-96.0009 Y19.2860 
G01 X-95.8590 Y19.3891 
G01 X-95.7027 Y19.4688 
G01 X-95.5359 Y19.5230 
G01 X-95.3627 Y19.5504 
G01 X-95.1873 Y19.5504 
G01 X-95.0141 Y19.5230 
G01 X-94.8473 Y19.4688 
G01 X-94.6910 Y19.3891 
G01 X-94.5491 Y19.2860 
G01 X-94.4251 Y19.1620 
G01 X-94.3220 Y19.0201 
G01 X-94.2423 Y18.8638 
G01 X-94.1881 Y18.6970 
G01 X-94.1607 Y18.5238 
G01 X-94.1607 Y18.3484 
G01 X-94.1881 Y18.1752 
G01 X-94.2423 Y18.0084 
G01 X-94.3220 Y17.8521 
G01 X-94.4251 Y17.7102 
G01 X-94.5491 Y17.5862 
G01 X-94.6910 Y17.4831 
G01 X-94.8473 Y17.4034 
G01 X-95.0141 Y17.3492 
G01 X-95.1873 Y17.3218 
G01 X-95.3627 Y17.3218 
G01 X-95.5359 Y17.3492 
G01 X-95.7027 Y17.4034 
G01 X-95.8590 Y17.4831 
G01 X-96.0009 Y17.5862 
G01 X-96.1249 Y17.7102 
G01 X-96.2280 Y17.8521 
G01 X-96.3077 Y18.0084 
G01 X-96.3619 Y18.1752 
G01 X-96.3893 Y18.3484 
G00 Z2.5400 
G00 X-77.0992 Y14.3447 
G01 Z-0.1778 F254.00 
G01 X-76.5747 Y14.8692 F508.00 
G01 X-76.5747 Y15.6108 
G01 X-77.0992 Y16.1353 
G01 X-77.8408 Y16.1353 
G01 X-78.3653 Y15.6108 
G01 X-78.3653 Y14.8692 
G01 X-77.8408 Y14.3447 
G01 X-77.0992 Y14.3447 
G00 Z2.5400 
G00 X-78.1875 Y14.9428 
G01 Z-0.1778 F254.00 
G01 X-78.1875 Y15.5372 F508.00 
G01 X-77.7672 Y15.9575 
G01 X-77.1728 Y15.9575 
G01 X-76.7525 Y15.5372 
G01 X-76.7525 Y14.9428 
G01 X-77.1728 Y14.5225 
G01 X-77.7672 Y14.5225 
G01 X-78.1875 Y14.9428 
G00 Z2.5400 
G00 X-61.8592 Y19.4247 
G01 Z-0.1778 F254.00 
G01 X-61.3347 Y19.9492 F508.00 
G01 X-61.3347 Y20.6908 
G01 X-61.8592 Y21.2153 
G01 X-62.6008 Y21.2153 
G01 X-63.1253 Y20.6908 
G01 X-63.1253 Y19.9492 
G01 X-62.6008 Y19.4247 
G01 X-61.8592 Y19.4247 
G00 Z2.5400 
G00 X-62.9475 Y20.0228 
G01 Z-0.1778 F254.00 
G01 X-62.9475 Y20.6172 F508.00 
G01 X-62.5272 Y21.0375 
G01 X-61.9328 Y21.0375 
G01 X-61.5125 Y20.6172 
G01 X-61.5125 Y20.0228 
G01 X-61.9328 Y19.6025 
G01 X-62.5272 Y19.6025 
G01 X-62.9475 Y20.0228 
G00 Z2.5400 
G00 X-61.8592 Y24.5047 
G01 Z-0.1778 F254.00 
G01 X-61.3347 Y25.0292 F508.00 
G01 X-61.3347 Y25.7708 
G01 X-61.8592 Y26.2953 
G01 X-62.6008 Y26.2953 
G01 X-63.1253 Y25.7708 
G01 X-63.1253 Y25.0292 
G01 X-62.6008 Y24.5047 
G01 X-61.8592 Y24.5047 
G00 Z2.5400 
G00 X-62.9475 Y25.1028 
G01 Z-0.1778 F254.00 
G01 X-62.9475 Y25.6972 F508.00 
G01 X-62.5272 Y26.1175 
G01 X-61.9328 Y26.1175 
G01 X-61.5125 Y25.6972 
G01 X-61.5125 Y25.1028 
G01 X-61.9328 Y24.6825 
G01 X-62.5272 Y24.6825 
G01 X-62.9475 Y25.1028 
G00 Z2.5400 
G00 X-77.0992 Y42.2847 
G01 Z-0.1778 F254.00 
G01 X-76.5747 Y42.8092 F508.00 
G01 X-76.5747 Y43.5508 
G01 X-77.0992 Y44.0753 
G01 X-77.8408 Y44.0753 
G01 X-78.3653 Y43.5508 
G01 X-78.3653 Y42.8092 
G01 X-77.8408 Y42.2847 
G01 X-77.0992 Y42.2847 
G00 Z2.5400 
G00 X-78.1875 Y42.8828 
G01 Z-0.1778 F254.00 
G01 X-78.1875 Y43.4772 F508.00 
G01 X-77.7672 Y43.8975 
G01 X-77.1728 Y43.8975 
G01 X-76.7525 Y43.4772 
G01 X-76.7525 Y42.8828 
G01 X-77.1728 Y42.4625 
G01 X-77.7672 Y42.4625 
G01 X-78.1875 Y42.8828 
G00 Z2.5400 
G00 X-95.0063 Y2.6034 
G01 Z-0.1778 F254.00 
G01 X-95.0063 Y3.3966 F508.00 
G01 X-95.3098 Y4.1293 
G01 X-95.8707 Y4.6902 
G01 X-96.6034 Y4.9937 
G01 X-97.3966 Y4.9937 
G01 X-98.1293 Y4.6902 
G01 X-98.6902 Y4.1293 
G01 X-98.9937 Y3.3966 
G01 X-98.9937 Y2.6034 
G01 X-98.6902 Y1.8707 
G01 X-98.1293 Y1.3098 
G01 X-97.3966 Y1.0063 
G01 X-96.6034 Y1.0063 
G01 X-95.8707 Y1.3098 
G01 X-95.3098 Y1.8707 
G01 X-95.0063 Y2.6034 
G00 Z2.5400 
G00 X-97.3966 Y45.0063 
G01 Z-0.1778 F254.00 
G01 X-96.6034 Y45.0063 F508.00 
G01 X-95.8707 Y45.3098 
G01 X-95.3098 Y45.8707 
G01 X-95.0063 Y46.6034 
G01 X-95.0063 Y47.3966 
G01 X-95.3098 Y48.1293 
G01 X-95.8707 Y48.6902 
G01 X-96.6034 Y48.9937 
G01 X-97.3966 Y48.9937 
G01 X-98.1293 Y48.6902 
G01 X-98.6902 Y48.1293 
G01 X-98.9937 Y47.3966 
G01 X-98.9937 Y46.6034 
G01 X-98.6902 Y45.8707 
G01 X-98.1293 Y45.3098 
G01 X-97.3966 Y45.0063 
G00 Z2.5400 
G00 X-67.4085 Y18.2753 
G01 Z-0.1778 F254.00 
G01 X-67.5906 Y18.1999 F508.00 
G01 X-68.8606 Y16.9299 
G01 X-68.9999 Y16.7906 
G01 X-69.0753 Y16.6085 
G01 X-69.0753 Y11.4347 
G01 X-69.0753 Y11.3872 
G01 X-69.0753 Y11.3387 
G01 X-69.0956 Y11.2897 
G01 X-69.1120 Y11.2500 
G01 X-69.1457 Y11.2163 
G01 X-69.1799 Y11.1822 
G01 X-69.2190 Y11.1660 
G01 X-69.2686 Y11.1454 
G01 X-69.3161 Y11.1454 
G01 X-69.3646 Y11.1454 
G01 X-69.4078 Y11.1633 
G01 X-70.1009 Y11.1633 
G01 X-70.1896 Y11.2000 
G01 X-70.2575 Y11.2679 
G01 X-70.7001 Y11.7106 
G01 X-70.8394 Y11.8499 
G01 X-71.0215 Y11.9253 
G01 X-72.1329 Y11.9253 
G01 X-72.2216 Y11.9620 
G01 X-72.2895 Y12.0299 
G01 X-73.1280 Y12.8684 
G01 X-73.1647 Y12.9571 
G01 X-73.1647 Y16.6085 
G01 X-73.2401 Y16.7906 
G01 X-75.6680 Y19.2184 
G01 X-75.7047 Y19.3071 
G01 X-75.7047 Y21.6885 
G01 X-75.7801 Y21.8706 
G01 X-76.5380 Y22.6284 
G01 X-76.5747 Y22.7171 
G01 X-76.5747 Y23.2308 
G01 X-76.5996 Y23.2557 
G01 X-76.6155 Y23.2927 
G01 X-76.6373 Y23.3454 
G01 X-76.6373 Y23.4414 
G01 X-76.6073 Y23.5138 
G01 X-76.6006 Y23.5301 
G01 X-76.5337 Y23.5969 
G01 X-76.4967 Y23.6129 
G01 X-76.4440 Y23.6347 
G01 X-69.7515 Y23.6347 
G01 X-69.5694 Y23.7101 
G01 X-68.2994 Y24.9801 
G01 X-68.1601 Y25.1194 
G01 X-68.0847 Y25.3015 
G01 X-68.0847 Y28.7419 
G01 X-68.0480 Y28.8306 
G01 X-68.0336 Y28.8449 
G01 X-67.9355 Y29.0818 
G01 X-67.9355 Y29.3382 
G01 X-68.0336 Y29.5751 
G01 X-68.2149 Y29.7564 
G01 X-68.4518 Y29.8545 
G01 X-68.7082 Y29.8545 
G01 X-68.9451 Y29.7564 
G01 X-69.1264 Y29.5751 
G01 X-69.2245 Y29.3382 
G01 X-69.2245 Y29.0818 
G01 X-69.1264 Y28.8449 
G01 X-69.1120 Y28.8306 
G01 X-69.0753 Y28.7419 
G01 X-69.0753 Y25.6571 
G01 X-69.1120 Y25.5684 
G01 X-69.1799 Y25.5005 
G01 X-70.0184 Y24.6620 
G01 X-70.1071 Y24.6253 
G01 X-75.7397 Y24.6253 
G01 X-75.8284 Y24.6620 
G01 X-75.8963 Y24.7299 
G01 X-75.9330 Y24.8186 
G01 X-75.9330 Y24.9146 
G01 X-75.8963 Y25.0033 
G01 X-75.8284 Y25.0712 
G01 X-74.6494 Y26.2501 
G01 X-74.5101 Y26.3894 
G01 X-74.4347 Y26.5715 
G01 X-74.4347 Y35.6585 
G01 X-74.5101 Y35.8406 
G01 X-74.6494 Y35.9799 
G01 X-75.7801 Y37.1106 
G01 X-75.9194 Y37.2499 
G01 X-76.1015 Y37.3253 
G01 X-76.4440 Y37.3253 
G01 X-76.4952 Y37.3465 
G01 X-76.5327 Y37.3620 
G01 X-76.6006 Y37.4299 
G01 X-76.6064 Y37.4441 
G01 X-76.6373 Y37.5186 
G01 X-76.6373 Y37.6146 
G01 X-76.6161 Y37.6658 
G01 X-76.6006 Y37.7033 
G01 X-76.5747 Y37.7292 
G01 X-76.5747 Y38.4708 
G01 X-77.0992 Y38.9953 
G01 X-77.8408 Y38.9953 
G01 X-78.3653 Y38.4708 
G01 X-78.3653 Y37.7292 
G01 X-78.3404 Y37.7043 
G01 X-78.3245 Y37.6673 
G01 X-78.3027 Y37.6146 
G01 X-78.3027 Y37.5186 
G01 X-78.3327 Y37.4462 
G01 X-78.3394 Y37.4299 
G01 X-78.4063 Y37.3631 
G01 X-78.4433 Y37.3471 
G01 X-78.4960 Y37.3253 
G01 X-83.4033 Y37.3253 
G01 X-83.4920 Y37.3620 
G01 X-83.5598 Y37.4299 
G01 X-83.8105 Y37.6806 
G01 X-84.1792 Y37.8333 
G01 X-86.0008 Y37.8333 
G01 X-86.3695 Y37.6806 
G01 X-86.6518 Y37.3983 
G01 X-86.8045 Y37.0296 
G01 X-86.8045 Y36.6304 
G01 X-86.6518 Y36.2617 
G01 X-86.3695 Y35.9794 
G01 X-86.0008 Y35.8267 
G01 X-84.1792 Y35.8267 
G01 X-83.8105 Y35.9794 
G01 X-83.4920 Y36.2980 
G01 X-83.4033 Y36.3347 
G01 X-78.4960 Y36.3347 
G01 X-78.4448 Y36.3135 
G01 X-78.4073 Y36.2980 
G01 X-78.3394 Y36.2301 
G01 X-78.3336 Y36.2159 
G01 X-78.3027 Y36.1414 
G01 X-78.3027 Y36.0454 
G01 X-78.3239 Y35.9942 
G01 X-78.3394 Y35.9567 
G01 X-78.3653 Y35.9308 
G01 X-78.3653 Y35.1892 
G01 X-78.3404 Y35.1643 
G01 X-78.3245 Y35.1273 
G01 X-78.3027 Y35.0746 
G01 X-78.3027 Y34.9786 
G01 X-78.3327 Y34.9062 
G01 X-78.3394 Y34.8899 
G01 X-78.4063 Y34.8231 
G01 X-78.4433 Y34.8071 
G01 X-78.4960 Y34.7853 
G01 X-83.4033 Y34.7853 
G01 X-83.4920 Y34.8220 
G01 X-83.5598 Y34.8899 
G01 X-83.8105 Y35.1406 
G01 X-84.1792 Y35.2933 
G01 X-86.0008 Y35.2933 
G01 X-86.3695 Y35.1406 
G01 X-86.6518 Y34.8583 
G01 X-86.8045 Y34.4896 
G01 X-86.8045 Y34.0904 
G01 X-86.6518 Y33.7217 
G01 X-86.3695 Y33.4394 
G01 X-86.0008 Y33.2867 
G01 X-84.1792 Y33.2867 
G01 X-83.8105 Y33.4394 
G01 X-83.4920 Y33.7580 
G01 X-83.4033 Y33.7947 
G01 X-78.4960 Y33.7947 
G01 X-78.4448 Y33.7735 
G01 X-78.4073 Y33.7580 
G01 X-78.3394 Y33.6901 
G01 X-78.3336 Y33.6759 
G01 X-78.3027 Y33.6014 
G01 X-78.3027 Y33.5054 
G01 X-78.3239 Y33.4542 
G01 X-78.3394 Y33.4167 
G01 X-78.3653 Y33.3908 
G01 X-78.3653 Y32.6492 
G01 X-78.3044 Y32.5883 
G01 X-78.2986 Y32.5741 
G01 X-78.2677 Y32.4996 
G01 X-78.2677 Y32.4036 
G01 X-78.2889 Y32.3524 
G01 X-78.3044 Y32.3149 
G01 X-78.3723 Y32.2470 
G01 X-78.3865 Y32.2412 
G01 X-78.4610 Y32.2103 
G01 X-78.5570 Y32.2103 
G01 X-78.6244 Y32.2382 
G01 X-78.6415 Y32.2453 
G01 X-83.4033 Y32.2453 
G01 X-83.4920 Y32.2820 
G01 X-83.5598 Y32.3499 
G01 X-83.8105 Y32.6006 
G01 X-84.1792 Y32.7533 
G01 X-86.0008 Y32.7533 
G01 X-86.3695 Y32.6006 
G01 X-86.6518 Y32.3183 
G01 X-86.8045 Y31.9496 
G01 X-86.8045 Y31.5504 
G01 X-86.6518 Y31.1817 
G01 X-86.3695 Y30.8994 
G01 X-86.0008 Y30.7467 
G01 X-84.1792 Y30.7467 
G01 X-83.8105 Y30.8994 
G01 X-83.4920 Y31.2180 
G01 X-83.4033 Y31.2547 
G01 X-78.9971 Y31.2547 
G01 X-78.9084 Y31.2180 
G01 X-78.9006 Y31.2102 
G01 X-78.4699 Y30.7795 
G01 X-78.4098 Y30.7194 
G01 X-78.4020 Y30.7116 
G01 X-78.3653 Y30.6229 
G01 X-78.3653 Y30.1092 
G01 X-77.8408 Y29.5847 
G01 X-77.0603 Y29.5847 
G01 X-76.9716 Y29.5480 
G01 X-76.9037 Y29.4801 
G01 X-76.8670 Y29.3914 
G01 X-76.8670 Y29.2954 
G01 X-76.9037 Y29.2067 
G01 X-76.9716 Y29.1388 
G01 X-77.2384 Y28.8720 
G01 X-77.3271 Y28.8353 
G01 X-77.8408 Y28.8353 
G01 X-78.3653 Y28.3108 
G01 X-78.3653 Y27.5692 
G01 X-77.8408 Y27.0447 
G01 X-77.0992 Y27.0447 
G01 X-76.5747 Y27.5692 
G01 X-76.5747 Y28.0829 
G01 X-76.5380 Y28.1716 
G01 X-76.4701 Y28.2395 
G01 X-75.9194 Y28.7901 
G01 X-75.8712 Y28.8384 
G01 X-75.8047 Y28.9048 
G01 X-75.7524 Y28.9273 
G01 X-75.7146 Y28.9430 
G01 X-75.6186 Y28.9430 
G01 X-75.5299 Y28.9063 
G01 X-75.4631 Y28.8394 
G01 X-75.4409 Y28.7875 
G01 X-75.4253 Y28.7497 
G01 X-75.4253 Y26.9271 
G01 X-75.4620 Y26.8384 
G01 X-75.5299 Y26.7705 
G01 X-76.3684 Y25.9320 
G01 X-76.4571 Y25.8953 
G01 X-76.6472 Y25.8953 
G01 X-76.7359 Y25.9320 
G01 X-76.8038 Y25.9999 
G01 X-77.0992 Y26.2953 
G01 X-77.8408 Y26.2953 
G01 X-78.3653 Y25.7708 
G01 X-78.3653 Y24.9903 
G01 X-78.4020 Y24.9016 
G01 X-78.4699 Y24.8337 
G01 X-78.5586 Y24.7970 
G01 X-78.6546 Y24.7970 
G01 X-78.7433 Y24.8337 
G01 X-78.8112 Y24.9016 
G01 X-79.4780 Y25.5684 
G01 X-79.5147 Y25.6571 
G01 X-79.5147 Y26.6955 
G01 X-79.4780 Y26.7842 
G01 X-79.4101 Y26.8520 
G01 X-79.3788 Y26.8833 
G01 X-79.2655 Y27.1569 
G01 X-79.2655 Y27.4531 
G01 X-79.3788 Y27.7267 
G01 X-79.5883 Y27.9362 
G01 X-79.8619 Y28.0495 
G01 X-80.1581 Y28.0495 
G01 X-80.4317 Y27.9362 
G01 X-80.6412 Y27.7267 
G01 X-80.7545 Y27.4531 
G01 X-80.7545 Y27.1569 
G01 X-80.6412 Y26.8833 
G01 X-80.5420 Y26.7842 
G01 X-80.5053 Y26.6955 
G01 X-80.5053 Y25.3015 
G01 X-80.4299 Y25.1194 
G01 X-79.1599 Y23.8494 
G01 X-79.0206 Y23.7101 
G01 X-78.8385 Y23.6347 
G01 X-78.4960 Y23.6347 
G01 X-78.4448 Y23.6135 
G01 X-78.4073 Y23.5980 
G01 X-78.3394 Y23.5301 
G01 X-78.3336 Y23.5159 
G01 X-78.3027 Y23.4414 
G01 X-78.3027 Y23.3454 
G01 X-78.3239 Y23.2942 
G01 X-78.3394 Y23.2567 
G01 X-78.3653 Y23.2308 
G01 X-78.3653 Y22.4892 
G01 X-77.8408 Y21.9647 
G01 X-77.3271 Y21.9647 
G01 X-77.2384 Y21.9280 
G01 X-77.1705 Y21.8601 
G01 X-76.9716 Y21.6612 
G01 X-76.9037 Y21.5933 
G01 X-76.8674 Y21.5056 
G01 X-76.8670 Y21.4086 
G01 X-76.9037 Y21.3199 
G01 X-76.9716 Y21.2520 
G01 X-77.0593 Y21.2157 
G01 X-77.8408 Y21.2153 
G01 X-78.2041 Y20.8520 
G01 X-78.2928 Y20.8153 
G01 X-83.9869 Y20.8153 
G01 X-84.0756 Y20.8520 
G01 X-84.0899 Y20.8664 
G01 X-84.3268 Y20.9645 
G01 X-84.5832 Y20.9645 
G01 X-84.8201 Y20.8664 
G01 X-85.0014 Y20.6851 
G01 X-85.0995 Y20.4482 
G01 X-85.0995 Y20.1918 
G01 X-85.0014 Y19.9549 
G01 X-84.8201 Y19.7736 
G01 X-84.5832 Y19.6755 
G01 X-84.3268 Y19.6755 
G01 X-84.0899 Y19.7736 
G01 X-84.0756 Y19.7880 
G01 X-83.9869 Y19.8247 
G01 X-78.2928 Y19.8247 
G01 X-78.2041 Y19.7880 
G01 X-78.1362 Y19.7201 
G01 X-77.8408 Y19.4247 
G01 X-77.0992 Y19.4247 
G01 X-77.0743 Y19.4496 
G01 X-77.0373 Y19.4655 
G01 X-76.9846 Y19.4873 
G01 X-76.8886 Y19.4873 
G01 X-76.8162 Y19.4573 
G01 X-76.7999 Y19.4506 
G01 X-76.7331 Y19.3837 
G01 X-76.7171 Y19.3467 
G01 X-76.6953 Y19.2940 
G01 X-76.6953 Y18.9515 
G01 X-76.6890 Y18.9363 
G01 X-76.6603 Y18.8670 
G01 X-76.6603 Y18.7710 
G01 X-76.6903 Y18.6986 
G01 X-76.6970 Y18.6823 
G01 X-76.7639 Y18.6155 
G01 X-76.8009 Y18.5995 
G01 X-76.8536 Y18.5777 
G01 X-76.9496 Y18.5777 
G01 X-77.0220 Y18.6077 
G01 X-77.0383 Y18.6144 
G01 X-77.0992 Y18.6753 
G01 X-77.8408 Y18.6753 
G01 X-78.3653 Y18.1508 
G01 X-78.3653 Y17.4092 
G01 X-77.8408 Y16.8847 
G01 X-77.0992 Y16.8847 
G01 X-76.7359 Y17.2480 
G01 X-76.6472 Y17.2847 
G01 X-76.4571 Y17.2847 
G01 X-76.3684 Y17.2480 
G01 X-76.3005 Y17.1801 
G01 X-75.4620 Y16.3416 
G01 X-75.4253 Y16.2529 
G01 X-75.4253 Y12.6015 
G01 X-75.3499 Y12.4194 
G01 X-74.1920 Y11.2616 
G01 X-74.1553 Y11.1729 
G01 X-74.1553 Y11.0514 
G01 X-74.1701 Y11.0157 
G01 X-74.1920 Y10.9627 
G01 X-74.2599 Y10.8948 
G01 X-74.3486 Y10.8581 
G01 X-74.4446 Y10.8581 
G01 X-74.4720 Y10.8694 
G01 X-74.1045 Y10.5019 
G01 X-74.1045 Y9.8181 
G01 X-74.4720 Y9.4506 
G01 X-74.4446 Y9.4619 
G01 X-74.3486 Y9.4619 
G01 X-74.2599 Y9.4252 
G01 X-74.1931 Y9.3584 
G01 X-74.1709 Y9.3064 
G01 X-74.1553 Y9.2686 
G01 X-74.1553 Y8.7915 
G01 X-74.0799 Y8.6094 
G01 X-73.4300 Y7.9596 
G01 X-73.3933 Y7.8709 
G01 X-73.3933 Y7.2044 
G01 X-72.8564 Y6.6675 
G01 X-71.9236 Y6.6675 
G01 X-71.3867 Y7.2044 
G01 X-71.3867 Y8.0356 
G01 X-71.9744 Y8.6233 
G01 X-72.6409 Y8.6233 
G01 X-72.7154 Y8.6542 
G01 X-72.7296 Y8.6600 
G01 X-72.7804 Y8.7108 
G01 X-72.8473 Y8.7778 
G01 X-72.8696 Y8.8301 
G01 X-72.8850 Y8.8674 
G01 X-72.8850 Y8.9634 
G01 X-72.8550 Y9.0358 
G01 X-72.8483 Y9.0521 
G01 X-72.7814 Y9.1189 
G01 X-72.7290 Y9.1413 
G01 X-72.6917 Y9.1567 
G01 X-71.9744 Y9.1567 
G01 X-71.3867 Y9.7444 
G01 X-71.3867 Y10.4617 
G01 X-71.3639 Y10.5167 
G01 X-71.3500 Y10.5504 
G01 X-71.3133 Y10.5870 
G01 X-71.2821 Y10.6183 
G01 X-71.2302 Y10.6397 
G01 X-71.1934 Y10.6550 
G01 X-71.0974 Y10.6550 
G01 X-71.0424 Y10.6322 
G01 X-71.0087 Y10.6183 
G01 X-70.9767 Y10.5862 
G01 X-70.9408 Y10.5504 
G01 X-70.8900 Y10.4996 
G01 X-70.8833 Y10.4833 
G01 X-70.8533 Y10.4109 
G01 X-70.8533 Y9.7444 
G01 X-70.2656 Y9.1567 
G01 X-69.5483 Y9.1567 
G01 X-69.5121 Y9.1417 
G01 X-69.4596 Y9.1200 
G01 X-69.3917 Y9.0521 
G01 X-69.3859 Y9.0379 
G01 X-69.3550 Y8.9634 
G01 X-69.3550 Y8.8674 
G01 X-69.3700 Y8.8312 
G01 X-69.3917 Y8.7787 
G01 X-69.4596 Y8.7108 
G01 X-69.5104 Y8.6600 
G01 X-69.5267 Y8.6533 
G01 X-69.5991 Y8.6233 
G01 X-70.2656 Y8.6233 
G01 X-70.8533 Y8.0356 
G01 X-70.8533 Y7.2044 
G01 X-70.3164 Y6.6675 
G01 X-69.3836 Y6.6675 
G01 X-68.8467 Y7.2044 
G01 X-68.8467 Y7.8709 
G01 X-68.8158 Y7.9454 
G01 X-68.8100 Y7.9596 
G01 X-68.7592 Y8.0104 
G01 X-68.6922 Y8.0773 
G01 X-68.6399 Y8.0996 
G01 X-68.6026 Y8.1150 
G01 X-68.5066 Y8.1150 
G01 X-68.4342 Y8.0850 
G01 X-68.4179 Y8.0783 
G01 X-68.3511 Y8.0114 
G01 X-68.3287 Y7.9590 
G01 X-68.3133 Y7.9217 
G01 X-68.3133 Y7.2044 
G01 X-67.7764 Y6.6675 
G01 X-66.8436 Y6.6675 
G01 X-66.3067 Y7.2044 
G01 X-66.3067 Y7.8709 
G01 X-66.2758 Y7.9454 
G01 X-66.2700 Y7.9596 
G01 X-66.2192 Y8.0104 
G01 X-66.1522 Y8.0773 
G01 X-66.0999 Y8.0996 
G01 X-66.0626 Y8.1150 
G01 X-65.9666 Y8.1150 
G01 X-65.8942 Y8.0850 
G01 X-65.8779 Y8.0783 
G01 X-65.8111 Y8.0114 
G01 X-65.7887 Y7.9590 
G01 X-65.7733 Y7.9217 
G01 X-65.7733 Y7.2044 
G01 X-65.2364 Y6.6675 
G01 X-64.3036 Y6.6675 
G01 X-63.7667 Y7.2044 
G01 X-63.7667 Y8.0356 
G01 X-64.3544 Y8.6233 
G01 X-65.2122 Y8.6233 
G01 X-65.2554 Y8.6054 
G01 X-65.3029 Y8.6054 
G01 X-65.3514 Y8.6054 
G01 X-65.4004 Y8.6257 
G01 X-65.4401 Y8.6421 
G01 X-65.4737 Y8.6758 
G01 X-65.5080 Y8.7100 
G01 X-65.5241 Y8.7491 
G01 X-65.5447 Y8.7987 
G01 X-65.5447 Y8.8853 
G01 X-65.5447 Y8.8895 
G01 X-65.5447 Y8.8947 
G01 X-65.5447 Y8.9813 
G01 X-65.5244 Y9.0303 
G01 X-65.5080 Y9.0700 
G01 X-65.4743 Y9.1037 
G01 X-65.4401 Y9.1378 
G01 X-65.4010 Y9.1540 
G01 X-65.3514 Y9.1746 
G01 X-65.3039 Y9.1746 
G01 X-65.2554 Y9.1746 
G01 X-65.2122 Y9.1567 
G01 X-64.3544 Y9.1567 
G01 X-63.7667 Y9.7444 
G01 X-63.7667 Y10.5756 
G01 X-64.3544 Y11.1633 
G01 X-65.2122 Y11.1633 
G01 X-65.2554 Y11.1454 
G01 X-65.3029 Y11.1454 
G01 X-65.3514 Y11.1454 
G01 X-65.4004 Y11.1657 
G01 X-65.4401 Y11.1821 
G01 X-65.4737 Y11.2158 
G01 X-65.5080 Y11.2500 
G01 X-65.5241 Y11.2891 
G01 X-65.5447 Y11.3387 
G01 X-65.5447 Y11.3862 
G01 X-65.5447 Y11.4347 
G01 X-65.5447 Y13.7129 
G01 X-65.5080 Y13.8016 
G01 X-64.6016 Y14.7080 
G01 X-64.5129 Y14.7447 
G01 X-63.0528 Y14.7447 
G01 X-62.9641 Y14.7080 
G01 X-62.8962 Y14.6401 
G01 X-62.6008 Y14.3447 
G01 X-61.8592 Y14.3447 
G01 X-61.3347 Y14.8692 
G01 X-61.3347 Y15.6108 
G01 X-61.8592 Y16.1353 
G01 X-62.6008 Y16.1353 
G01 X-62.9641 Y15.7720 
G01 X-63.0528 Y15.7353 
G01 X-64.8685 Y15.7353 
G01 X-65.0506 Y15.6599 
G01 X-65.2578 Y15.4527 
G01 X-66.4599 Y14.2506 
G01 X-66.5353 Y14.0685 
G01 X-66.5353 Y11.4347 
G01 X-66.5353 Y11.3872 
G01 X-66.5353 Y11.3387 
G01 X-66.5556 Y11.2897 
G01 X-66.5720 Y11.2500 
G01 X-66.6057 Y11.2163 
G01 X-66.6399 Y11.1822 
G01 X-66.6790 Y11.1660 
G01 X-66.7286 Y11.1454 
G01 X-66.7761 Y11.1454 
G01 X-66.8246 Y11.1454 
G01 X-66.8678 Y11.1633 
G01 X-67.7522 Y11.1633 
G01 X-67.7954 Y11.1454 
G01 X-67.8429 Y11.1454 
G01 X-67.8914 Y11.1454 
G01 X-67.9404 Y11.1657 
G01 X-67.9801 Y11.1821 
G01 X-68.0137 Y11.2158 
G01 X-68.0480 Y11.2500 
G01 X-68.0641 Y11.2891 
G01 X-68.0847 Y11.3387 
G01 X-68.0847 Y11.3862 
G01 X-68.0847 Y11.4347 
G01 X-68.0847 Y16.2529 
G01 X-68.0480 Y16.3416 
G01 X-67.9801 Y16.4094 
G01 X-67.1416 Y17.2480 
G01 X-67.0529 Y17.2847 
G01 X-63.0528 Y17.2847 
G01 X-62.9641 Y17.2480 
G01 X-62.8962 Y17.1801 
G01 X-62.6008 Y16.8847 
G01 X-61.8592 Y16.8847 
G01 X-61.3347 Y17.4092 
G01 X-61.3347 Y18.1508 
G01 X-61.8592 Y18.6753 
G01 X-62.6008 Y18.6753 
G01 X-62.9641 Y18.3120 
G01 X-63.0528 Y18.2753 
G01 X-63.1488 Y18.2753 
G01 X-67.4085 Y18.2753 
G00 Z2.5400 
G00 X-85.8825 Y37.6555 
G01 Z-0.1778 F254.00 
G01 X-84.2975 Y37.6555 F508.00 
G01 X-84.1380 Y37.6238 
G01 X-83.9878 Y37.5615 
G01 X-83.8526 Y37.4712 
G01 X-83.7376 Y37.3562 
G01 X-83.6472 Y37.2210 
G01 X-83.6168 Y37.1475 
G01 X-76.1582 Y37.1475 
G01 X-76.0774 Y37.1259 
G01 X-76.0050 Y37.0841 
G01 X-75.9459 Y37.0249 
G01 X-74.6759 Y35.7549 
G01 X-74.6341 Y35.6825 
G01 X-74.6125 Y35.6018 
G01 X-74.6125 Y26.6282 
G01 X-74.6341 Y26.5474 
G01 X-74.6759 Y26.4750 
G01 X-74.7351 Y26.4159 
G01 X-76.0050 Y25.1459 
G01 X-76.0774 Y25.1041 
G01 X-76.1582 Y25.0825 
G01 X-76.7728 Y25.0825 
G01 X-77.1728 Y24.6825 
G01 X-77.7672 Y24.6825 
G01 X-78.1875 Y25.1028 
G01 X-78.1875 Y25.6972 
G01 X-77.7672 Y26.1175 
G01 X-77.1728 Y26.1175 
G01 X-76.7728 Y25.7175 
G01 X-76.3315 Y25.7175 
G01 X-75.2475 Y26.8015 
G01 X-75.2475 Y35.4285 
G01 X-76.3315 Y36.5125 
G01 X-83.6168 Y36.5125 
G01 X-83.6472 Y36.4390 
G01 X-83.7376 Y36.3038 
G01 X-83.8526 Y36.1888 
G01 X-83.9878 Y36.0984 
G01 X-84.1380 Y36.0362 
G01 X-84.2975 Y36.0045 
G01 X-85.8825 Y36.0045 
G01 X-86.0420 Y36.0362 
G01 X-86.1922 Y36.0984 
G01 X-86.3274 Y36.1888 
G01 X-86.4424 Y36.3038 
G01 X-86.5327 Y36.4390 
G01 X-86.5950 Y36.5892 
G01 X-86.6267 Y36.7487 
G01 X-86.6267 Y36.9113 
G01 X-86.5950 Y37.0708 
G01 X-86.5327 Y37.2210 
G01 X-86.4424 Y37.3562 
G01 X-86.3274 Y37.4712 
G01 X-86.1922 Y37.5615 
G01 X-86.0420 Y37.6238 
G01 X-85.8825 Y37.6555 
G00 Z2.5400 
G00 X-65.5955 Y7.2781 
G01 Z-0.1778 F254.00 
G01 X-65.5955 Y7.9619 F508.00 
G01 X-65.1119 Y8.4455 
G01 X-64.4281 Y8.4455 
G01 X-63.9445 Y7.9619 
G01 X-63.9445 Y7.2781 
G01 X-64.4281 Y6.7945 
G01 X-65.1119 Y6.7945 
G01 X-65.5955 Y7.2781 
G00 Z2.5400 
G00 X-65.5955 Y9.8181 
G01 Z-0.1778 F254.00 
G01 X-65.5955 Y10.5019 F508.00 
G01 X-65.1119 Y10.9855 
G01 X-64.4281 Y10.9855 
G01 X-63.9445 Y10.5019 
G01 X-63.9445 Y9.8181 
G01 X-64.4281 Y9.3345 
G01 X-65.1119 Y9.3345 
G01 X-65.5955 Y9.8181 
G00 Z2.5400 
G00 X-68.1355 Y7.2781 
G01 Z-0.1778 F254.00 
G01 X-68.1355 Y7.9619 F508.00 
G01 X-67.6519 Y8.4455 
G01 X-66.9681 Y8.4455 
G01 X-66.9508 Y8.4282 
G01 X-66.3575 Y9.0215 
G01 X-66.3575 Y14.0118 
G01 X-66.3359 Y14.0926 
G01 X-66.2941 Y14.1649 
G01 X-65.0241 Y15.4349 
G01 X-64.9649 Y15.4941 
G01 X-64.8925 Y15.5359 
G01 X-64.8118 Y15.5575 
G01 X-62.9272 Y15.5575 
G01 X-62.5272 Y15.9575 
G01 X-61.9328 Y15.9575 
G01 X-61.5125 Y15.5372 
G01 X-61.5125 Y14.9428 
G01 X-61.9328 Y14.5225 
G01 X-62.5272 Y14.5225 
G01 X-62.9272 Y14.9225 
G01 X-64.6385 Y14.9225 
G01 X-65.7225 Y13.8385 
G01 X-65.7225 Y8.8482 
G01 X-65.7441 Y8.7674 
G01 X-65.7859 Y8.6951 
G01 X-65.8451 Y8.6359 
G01 X-66.5018 Y7.9792 
G01 X-66.4845 Y7.9619 
G01 X-66.4845 Y7.2781 
G01 X-66.9681 Y6.7945 
G01 X-67.6519 Y6.7945 
G01 X-68.1355 Y7.2781 
G00 Z2.5400 
G00 X-68.1355 Y9.8181 
G01 Z-0.1778 F254.00 
G01 X-68.1355 Y10.5019 F508.00 
G01 X-67.6519 Y10.9855 
G01 X-66.9681 Y10.9855 
G01 X-66.4845 Y10.5019 
G01 X-66.4845 Y9.8181 
G01 X-66.9681 Y9.3345 
G01 X-67.6519 Y9.3345 
G01 X-68.1355 Y9.8181 
G00 Z2.5400 
G00 X-70.6755 Y7.2781 
G01 Z-0.1778 F254.00 
G01 X-70.6755 Y7.9619 F508.00 
G01 X-70.1919 Y8.4455 
G01 X-69.5081 Y8.4455 
G01 X-69.4908 Y8.4282 
G01 X-68.8975 Y9.0215 
G01 X-68.8975 Y16.5518 
G01 X-68.8759 Y16.6326 
G01 X-68.8341 Y16.7049 
G01 X-68.7749 Y16.7641 
G01 X-67.5049 Y18.0341 
G01 X-67.4326 Y18.0759 
G01 X-67.3518 Y18.0975 
G01 X-62.9272 Y18.0975 
G01 X-62.5272 Y18.4975 
G01 X-61.9328 Y18.4975 
G01 X-61.5125 Y18.0772 
G01 X-61.5125 Y17.4828 
G01 X-61.9328 Y17.0625 
G01 X-62.5272 Y17.0625 
G01 X-62.9272 Y17.4625 
G01 X-67.1785 Y17.4625 
G01 X-68.2625 Y16.3785 
G01 X-68.2625 Y8.8482 
G01 X-68.2841 Y8.7674 
G01 X-68.3259 Y8.6951 
G01 X-69.0418 Y7.9792 
G01 X-69.0245 Y7.9619 
G01 X-69.0245 Y7.2781 
G01 X-69.5081 Y6.7945 
G01 X-70.1919 Y6.7945 
G01 X-70.6755 Y7.2781 
G00 Z2.5400 
G00 X-70.6755 Y9.8181 
G01 Z-0.1778 F254.00 
G01 X-70.6755 Y10.5019 F508.00 
G01 X-70.6582 Y10.5192 
G01 X-71.2515 Y11.1125 
G01 X-72.4318 Y11.1125 
G01 X-72.5126 Y11.1341 
G01 X-72.5849 Y11.1759 
G01 X-73.8549 Y12.4459 
G01 X-73.9141 Y12.5051 
G01 X-73.9559 Y12.5774 
G01 X-73.9775 Y12.6582 
G01 X-73.9775 Y16.3785 
G01 X-76.3949 Y18.7959 
G01 X-76.4541 Y18.8551 
G01 X-76.4959 Y18.9274 
G01 X-76.5175 Y19.0082 
G01 X-76.5175 Y21.4585 
G01 X-77.2015 Y22.1425 
G01 X-77.7672 Y22.1425 
G01 X-78.1875 Y22.5628 
G01 X-78.1875 Y23.1572 
G01 X-77.7672 Y23.5775 
G01 X-77.1728 Y23.5775 
G01 X-76.7525 Y23.1572 
G01 X-76.7525 Y22.5915 
G01 X-75.9459 Y21.7849 
G01 X-75.9041 Y21.7126 
G01 X-75.8825 Y21.6318 
G01 X-75.8825 Y19.1815 
G01 X-73.4059 Y16.7049 
G01 X-73.3641 Y16.6326 
G01 X-73.3425 Y16.5518 
G01 X-73.3425 Y12.8315 
G01 X-72.2585 Y11.7475 
G01 X-71.0782 Y11.7475 
G01 X-70.9974 Y11.7259 
G01 X-70.9250 Y11.6841 
G01 X-70.8659 Y11.6249 
G01 X-70.2092 Y10.9682 
G01 X-70.1919 Y10.9855 
G01 X-69.5081 Y10.9855 
G01 X-69.0245 Y10.5019 
G01 X-69.0245 Y9.8181 
G01 X-69.5081 Y9.3345 
G01 X-70.1919 Y9.3345 
G01 X-70.6755 Y9.8181 
G00 Z2.5400 
G00 X-73.2155 Y7.2781 
G01 Z-0.1778 F254.00 
G01 X-73.2155 Y7.9619 F508.00 
G01 X-73.1982 Y7.9792 
G01 X-73.9141 Y8.6951 
G01 X-73.9559 Y8.7674 
G01 X-73.9775 Y8.8482 
G01 X-73.9775 Y11.2985 
G01 X-75.1841 Y12.5051 
G01 X-75.2259 Y12.5774 
G01 X-75.2475 Y12.6582 
G01 X-75.2475 Y16.3785 
G01 X-76.3315 Y17.4625 
G01 X-76.7728 Y17.4625 
G01 X-77.1728 Y17.0625 
G01 X-77.7672 Y17.0625 
G01 X-78.1875 Y17.4828 
G01 X-78.1875 Y18.0772 
G01 X-77.7672 Y18.4975 
G01 X-77.1728 Y18.4975 
G01 X-76.7728 Y18.0975 
G01 X-76.1582 Y18.0975 
G01 X-76.0774 Y18.0759 
G01 X-76.0050 Y18.0341 
G01 X-74.7351 Y16.7641 
G01 X-74.6759 Y16.7049 
G01 X-74.6341 Y16.6326 
G01 X-74.6125 Y16.5518 
G01 X-74.6125 Y12.8315 
G01 X-73.4651 Y11.6841 
G01 X-73.4059 Y11.6249 
G01 X-73.3641 Y11.5526 
G01 X-73.3425 Y11.4718 
G01 X-73.3425 Y9.0215 
G01 X-72.7492 Y8.4282 
G01 X-72.7319 Y8.4455 
G01 X-72.0481 Y8.4455 
G01 X-71.5645 Y7.9619 
G01 X-71.5645 Y7.2781 
G01 X-72.0481 Y6.7945 
G01 X-72.7319 Y6.7945 
G01 X-73.2155 Y7.2781 
G00 Z2.5400 
G00 X-73.2155 Y9.8181 
G01 Z-0.1778 F254.00 
G01 X-73.2155 Y10.5019 F508.00 
G01 X-72.7319 Y10.9855 
G01 X-72.0481 Y10.9855 
G01 X-71.5645 Y10.5019 
G01 X-71.5645 Y9.8181 
G01 X-72.0481 Y9.3345 
G01 X-72.7319 Y9.3345 
G01 X-73.2155 Y9.8181 
G00 Z2.5400 
G00 X-78.1875 Y37.8028 
G01 Z-0.1778 F254.00 
G01 X-78.1875 Y38.3972 F508.00 
G01 X-77.7672 Y38.8175 
G01 X-77.1728 Y38.8175 
G01 X-76.7525 Y38.3972 
G01 X-76.7525 Y37.8028 
G01 X-77.1728 Y37.3825 
G01 X-77.7672 Y37.3825 
G01 X-78.1875 Y37.8028 
G00 Z2.5400 
G00 X-78.1875 Y35.2628 
G01 Z-0.1778 F254.00 
G01 X-78.1875 Y35.8572 F508.00 
G01 X-77.7672 Y36.2775 
G01 X-77.1728 Y36.2775 
G01 X-76.7525 Y35.8572 
G01 X-76.7525 Y35.2628 
G01 X-77.1728 Y34.8425 
G01 X-77.7672 Y34.8425 
G01 X-78.1875 Y35.2628 
G00 Z2.5400 
G00 X-78.1875 Y32.7228 
G01 Z-0.1778 F254.00 
G01 X-78.1875 Y33.3172 F508.00 
G01 X-77.7672 Y33.7375 
G01 X-77.1728 Y33.7375 
G01 X-76.7525 Y33.3172 
G01 X-76.7525 Y32.7228 
G01 X-77.1728 Y32.3025 
G01 X-77.7672 Y32.3025 
G01 X-78.1875 Y32.7228 
G00 Z2.5400 
G00 X-78.1875 Y30.1828 
G01 Z-0.1778 F254.00 
G01 X-78.1875 Y30.7485 F508.00 
G01 X-78.8715 Y31.4325 
G01 X-83.6168 Y31.4325 
G01 X-83.6472 Y31.3590 
G01 X-83.7376 Y31.2238 
G01 X-83.8526 Y31.1088 
G01 X-83.9878 Y31.0185 
G01 X-84.1380 Y30.9562 
G01 X-84.2975 Y30.9245 
G01 X-85.8825 Y30.9245 
G01 X-86.0420 Y30.9562 
G01 X-86.1922 Y31.0185 
G01 X-86.3274 Y31.1088 
G01 X-86.4424 Y31.2238 
G01 X-86.5327 Y31.3590 
G01 X-86.5950 Y31.5092 
G01 X-86.6267 Y31.6687 
G01 X-86.6267 Y31.8313 
G01 X-86.5950 Y31.9908 
G01 X-86.5327 Y32.1410 
G01 X-86.4424 Y32.2762 
G01 X-86.3274 Y32.3912 
G01 X-86.1922 Y32.4815 
G01 X-86.0420 Y32.5438 
G01 X-85.8825 Y32.5755 
G01 X-84.2975 Y32.5755 
G01 X-84.1380 Y32.5438 
G01 X-83.9878 Y32.4815 
G01 X-83.8526 Y32.3912 
G01 X-83.7376 Y32.2762 
G01 X-83.6472 Y32.1410 
G01 X-83.6168 Y32.0675 
G01 X-78.6982 Y32.0675 
G01 X-78.6174 Y32.0459 
G01 X-78.5451 Y32.0041 
G01 X-77.7385 Y31.1975 
G01 X-77.1728 Y31.1975 
G01 X-76.7525 Y30.7772 
G01 X-76.7525 Y30.1828 
G01 X-77.1728 Y29.7625 
G01 X-77.7672 Y29.7625 
G01 X-78.1875 Y30.1828 
G00 Z2.5400 
G00 X-78.1875 Y27.6428 
G01 Z-0.1778 F254.00 
G01 X-78.1875 Y28.2372 F508.00 
G01 X-77.7672 Y28.6575 
G01 X-77.2015 Y28.6575 
G01 X-76.5175 Y29.3415 
G01 X-76.5175 Y33.9725 
G01 X-83.6168 Y33.9725 
G01 X-83.6472 Y33.8990 
G01 X-83.7376 Y33.7638 
G01 X-83.8526 Y33.6488 
G01 X-83.9878 Y33.5585 
G01 X-84.1380 Y33.4962 
G01 X-84.2975 Y33.4645 
G01 X-85.8825 Y33.4645 
G01 X-86.0420 Y33.4962 
G01 X-86.1922 Y33.5585 
G01 X-86.3274 Y33.6488 
G01 X-86.4424 Y33.7638 
G01 X-86.5327 Y33.8990 
G01 X-86.5950 Y34.0492 
G01 X-86.6267 Y34.2087 
G01 X-86.6267 Y34.3713 
G01 X-86.5950 Y34.5308 
G01 X-86.5327 Y34.6810 
G01 X-86.4424 Y34.8162 
G01 X-86.3274 Y34.9312 
G01 X-86.1922 Y35.0215 
G01 X-86.0420 Y35.0838 
G01 X-85.8825 Y35.1155 
G01 X-84.2975 Y35.1155 
G01 X-84.1380 Y35.0838 
G01 X-83.9878 Y35.0215 
G01 X-83.8526 Y34.9312 
G01 X-83.7376 Y34.8162 
G01 X-83.6472 Y34.6810 
G01 X-83.6168 Y34.6075 
G01 X-76.1582 Y34.6075 
G01 X-76.0774 Y34.5859 
G01 X-76.0050 Y34.5441 
G01 X-75.9459 Y34.4849 
G01 X-75.9041 Y34.4126 
G01 X-75.8825 Y34.3318 
G01 X-75.8825 Y29.1682 
G01 X-75.9041 Y29.0874 
G01 X-75.9459 Y29.0151 
G01 X-76.7525 Y28.2085 
G01 X-76.7525 Y27.6428 
G01 X-77.1728 Y27.2225 
G01 X-77.7672 Y27.2225 
G01 X-78.1875 Y27.6428 
G00 Z2.5400 
G00 X-77.7672 Y21.0375 
G01 Z-0.1778 F254.00 
G01 X-77.1728 Y21.0375 F508.00 
G01 X-76.7525 Y20.6172 
G01 X-76.7525 Y20.0228 
G01 X-77.1728 Y19.6025 
G01 X-77.7672 Y19.6025 
G01 X-78.1672 Y20.0025 
G01 X-84.1125 Y20.0025 
G01 X-84.1684 Y19.9465 
G01 X-84.2749 Y19.8851 
G01 X-84.3936 Y19.8533 
G01 X-84.5164 Y19.8533 
G01 X-84.6351 Y19.8851 
G01 X-84.7416 Y19.9465 
G01 X-84.8285 Y20.0334 
G01 X-84.8899 Y20.1399 
G01 X-84.9217 Y20.2586 
G01 X-84.9217 Y20.3814 
G01 X-84.8899 Y20.5001 
G01 X-84.8285 Y20.6066 
G01 X-84.7416 Y20.6935 
G01 X-84.6351 Y20.7549 
G01 X-84.5164 Y20.7867 
G01 X-84.3936 Y20.7867 
G01 X-84.2749 Y20.7549 
G01 X-84.1684 Y20.6935 
G01 X-84.1125 Y20.6375 
G01 X-78.1672 Y20.6375 
G01 X-77.7672 Y21.0375 
G00 Z2.5400 
G00 X-80.5767 Y27.2304 
G01 Z-0.1778 F254.00 
G01 X-80.5767 Y27.3796 F508.00 
G01 X-80.5381 Y27.5237 
G01 X-80.4635 Y27.6530 
G01 X-80.3580 Y27.7585 
G01 X-80.2287 Y27.8331 
G01 X-80.0846 Y27.8717 
G01 X-79.9354 Y27.8717 
G01 X-79.7913 Y27.8331 
G01 X-79.6620 Y27.7585 
G01 X-79.5565 Y27.6530 
G01 X-79.4819 Y27.5237 
G01 X-79.4433 Y27.3796 
G01 X-79.4433 Y27.2304 
G01 X-79.4819 Y27.0863 
G01 X-79.5565 Y26.9570 
G01 X-79.6620 Y26.8515 
G01 X-79.6925 Y26.8339 
G01 X-79.6925 Y25.5315 
G01 X-78.6085 Y24.4475 
G01 X-69.9815 Y24.4475 
G01 X-68.8975 Y25.5315 
G01 X-68.8975 Y28.8675 
G01 X-68.9535 Y28.9234 
G01 X-69.0149 Y29.0299 
G01 X-69.0467 Y29.1486 
G01 X-69.0467 Y29.2714 
G01 X-69.0149 Y29.3901 
G01 X-68.9535 Y29.4966 
G01 X-68.8666 Y29.5835 
G01 X-68.7601 Y29.6449 
G01 X-68.6414 Y29.6767 
G01 X-68.5186 Y29.6767 
G01 X-68.3999 Y29.6449 
G01 X-68.2934 Y29.5835 
G01 X-68.2065 Y29.4966 
G01 X-68.1451 Y29.3901 
G01 X-68.1133 Y29.2714 
G01 X-68.1133 Y29.1486 
G01 X-68.1451 Y29.0299 
G01 X-68.2065 Y28.9234 
G01 X-68.2625 Y28.8675 
G01 X-68.2625 Y25.3582 
G01 X-68.2841 Y25.2774 
G01 X-68.3259 Y25.2050 
G01 X-68.3851 Y25.1459 
G01 X-69.6551 Y23.8759 
G01 X-69.7274 Y23.8341 
G01 X-69.8082 Y23.8125 
G01 X-78.7818 Y23.8125 
G01 X-78.8625 Y23.8341 
G01 X-78.9349 Y23.8759 
G01 X-78.9941 Y23.9351 
G01 X-80.2641 Y25.2050 
G01 X-80.3059 Y25.2774 
G01 X-80.3275 Y25.3582 
G01 X-80.3275 Y26.8339 
G01 X-80.3580 Y26.8515 
G01 X-80.4635 Y26.9570 
G01 X-80.5381 Y27.0863 
G01 X-80.5767 Y27.2304 
G00 Z2.5400 
G00 X-96.0069 Y32.5807 
G01 Z-0.1778 F254.00 
G01 X-95.5320 Y32.3840 F508.00 
G01 X-95.0180 Y32.3840 
G01 X-94.5431 Y32.5807 
G01 X-94.1796 Y32.9442 
G01 X-93.9829 Y33.4191 
G01 X-93.9829 Y33.9331 
G01 X-94.1796 Y34.4080 
G01 X-94.5431 Y34.7715 
G01 X-95.0180 Y34.9682 
G01 X-95.5320 Y34.9682 
G01 X-96.0069 Y34.7715 
G01 X-96.3704 Y34.4080 
G01 X-96.5671 Y33.9331 
G01 X-96.5671 Y33.4191 
G01 X-96.3704 Y32.9442 
G01 X-96.0069 Y32.5807 
G00 Z2.5400 
G00 X-96.3893 Y33.5884 
G01 Z-0.1778 F254.00 
G01 X-96.3893 Y33.7638 F508.00 
G01 X-96.3619 Y33.9370 
G01 X-96.3077 Y34.1038 
G01 X-96.2280 Y34.2601 
G01 X-96.1249 Y34.4020 
G01 X-96.0009 Y34.5260 
G01 X-95.8590 Y34.6291 
G01 X-95.7027 Y34.7088 
G01 X-95.5359 Y34.7630 
G01 X-95.3627 Y34.7904 
G01 X-95.1873 Y34.7904 
G01 X-95.0141 Y34.7630 
G01 X-94.8473 Y34.7088 
G01 X-94.6910 Y34.6291 
G01 X-94.5491 Y34.5260 
G01 X-94.4251 Y34.4020 
G01 X-94.3220 Y34.2601 
G01 X-94.2423 Y34.1038 
G01 X-94.1881 Y33.9370 
G01 X-94.1607 Y33.7638 
G01 X-94.1607 Y33.5884 
G01 X-94.1881 Y33.4152 
G01 X-94.2423 Y33.2484 
G01 X-94.3220 Y33.0921 
G01 X-94.4251 Y32.9502 
G01 X-94.5491 Y32.8262 
G01 X-94.6910 Y32.7231 
G01 X-94.8473 Y32.6434 
G01 X-95.0141 Y32.5892 
G01 X-95.1873 Y32.5618 
G01 X-95.3627 Y32.5618 
G01 X-95.5359 Y32.5892 
G01 X-95.7027 Y32.6434 
G01 X-95.8590 Y32.7231 
G01 X-96.0009 Y32.8262 
G01 X-96.1249 Y32.9502 
G01 X-96.2280 Y33.0921 
G01 X-96.3077 Y33.2484 
G01 X-96.3619 Y33.4152 
G01 X-96.3893 Y33.5884 
G00 Z2.5400 
G00 X-61.8591 Y27.0447 
G01 Z-0.1778 F254.00 
G01 X-61.3347 Y27.5692 F508.00 
G01 X-61.3347 Y28.3108 
G01 X-61.8592 Y28.8353 
G01 X-62.6008 Y28.8353 
G01 X-63.1253 Y28.3108 
G01 X-63.1253 Y27.5692 
G01 X-62.6008 Y27.0447 
G01 X-61.8591 Y27.0447 
G00 Z2.5400 
G00 X-62.9475 Y27.6428 
G01 Z-0.1778 F254.00 
G01 X-62.9475 Y28.2372 F508.00 
G01 X-62.5272 Y28.6575 
G01 X-61.9328 Y28.6575 
G01 X-61.5125 Y28.2372 
G01 X-61.5125 Y27.6428 
G01 X-61.9328 Y27.2225 
G01 X-62.5272 Y27.2225 
G01 X-62.9475 Y27.6428 
G00 Z2.5400 
G00 X-61.8592 Y21.9647 
G01 Z-0.1778 F254.00 
G01 X-61.3347 Y22.4892 F508.00 
G01 X-61.3347 Y23.2308 
G01 X-61.8592 Y23.7553 
G01 X-62.6008 Y23.7553 
G01 X-63.1253 Y23.2308 
G01 X-63.1253 Y22.4892 
G01 X-62.6008 Y21.9647 
G01 X-61.8592 Y21.9647 
G00 Z2.5400 
G00 X-62.9475 Y22.5628 
G01 Z-0.1778 F254.00 
G01 X-62.9475 Y23.1572 F508.00 
G01 X-62.5272 Y23.5775 
G01 X-61.9328 Y23.5775 
G01 X-61.5125 Y23.1572 
G01 X-61.5125 Y22.5628 
G01 X-61.9328 Y22.1425 
G01 X-62.5272 Y22.1425 
G01 X-62.9475 Y22.5628 
G00 Z2.5400 
G00 X-96.0069 Y12.2607 
G01 Z-0.1778 F254.00 
G01 X-95.5320 Y12.0640 F508.00 
G01 X-95.0180 Y12.0640 
G01 X-94.5431 Y12.2607 
G01 X-94.1796 Y12.6242 
G01 X-93.9829 Y13.0991 
G01 X-93.9829 Y13.6131 
G01 X-94.1796 Y14.0880 
G01 X-94.5431 Y14.4515 
G01 X-95.0180 Y14.6482 
G01 X-95.5320 Y14.6482 
G01 X-96.0069 Y14.4515 
G01 X-96.3704 Y14.0880 
G01 X-96.5671 Y13.6131 
G01 X-96.5671 Y13.0991 
G01 X-96.3704 Y12.6242 
G01 X-96.0069 Y12.2607 
G00 Z2.5400 
G00 X-96.3893 Y13.2684 
G01 Z-0.1778 F254.00 
G01 X-96.3893 Y13.4438 F508.00 
G01 X-96.3619 Y13.6170 
G01 X-96.3077 Y13.7838 
G01 X-96.2280 Y13.9401 
G01 X-96.1249 Y14.0820 
G01 X-96.0009 Y14.2060 
G01 X-95.8590 Y14.3091 
G01 X-95.7027 Y14.3888 
G01 X-95.5359 Y14.4430 
G01 X-95.3627 Y14.4704 
G01 X-95.1873 Y14.4704 
G01 X-95.0141 Y14.4430 
G01 X-94.8473 Y14.3888 
G01 X-94.6910 Y14.3091 
G01 X-94.5491 Y14.2060 
G01 X-94.4251 Y14.0820 
G01 X-94.3220 Y13.9401 
G01 X-94.2423 Y13.7838 
G01 X-94.1881 Y13.6170 
G01 X-94.1607 Y13.4438 
G01 X-94.1607 Y13.2684 
G01 X-94.1881 Y13.0952 
G01 X-94.2423 Y12.9284 
G01 X-94.3220 Y12.7721 
G01 X-94.4251 Y12.6302 
G01 X-94.5491 Y12.5062 
G01 X-94.6910 Y12.4031 
G01 X-94.8473 Y12.3234 
G01 X-95.0141 Y12.2692 
G01 X-95.1873 Y12.2418 
G01 X-95.3627 Y12.2418 
G01 X-95.5359 Y12.2692 
G01 X-95.7027 Y12.3234 
G01 X-95.8590 Y12.4031 
G01 X-96.0009 Y12.5062 
G01 X-96.1249 Y12.6302 
G01 X-96.2280 Y12.7721 
G01 X-96.3077 Y12.9284 
G01 X-96.3619 Y13.0952 
G01 X-96.3893 Y13.2684 
G00 Z2.5400 
G00 X-96.0069 Y22.4207 
G01 Z-0.1778 F254.00 
G01 X-95.5320 Y22.2240 F508.00 
G01 X-95.0180 Y22.2240 
G01 X-94.5431 Y22.4207 
G01 X-94.1796 Y22.7842 
G01 X-93.9829 Y23.2591 
G01 X-93.9829 Y23.7731 
G01 X-94.1796 Y24.2480 
G01 X-94.5431 Y24.6115 
G01 X-95.0180 Y24.8082 
G01 X-95.5320 Y24.8082 
G01 X-96.0069 Y24.6115 
G01 X-96.3704 Y24.2480 
G01 X-96.5671 Y23.7731 
G01 X-96.5671 Y23.2591 
G01 X-96.3704 Y22.7842 
G01 X-96.0069 Y22.4207 
G00 Z2.5400 
G00 X-96.3893 Y23.4284 
G01 Z-0.1778 F254.00 
G01 X-96.3893 Y23.6038 F508.00 
G01 X-96.3619 Y23.7770 
G01 X-96.3077 Y23.9438 
G01 X-96.2280 Y24.1001 
G01 X-96.1249 Y24.2420 
G01 X-96.0009 Y24.3660 
G01 X-95.8590 Y24.4691 
G01 X-95.7027 Y24.5488 
G01 X-95.5359 Y24.6030 
G01 X-95.3627 Y24.6304 
G01 X-95.1873 Y24.6304 
G01 X-95.0141 Y24.6030 
G01 X-94.8473 Y24.5488 
G01 X-94.6910 Y24.4691 
G01 X-94.5491 Y24.3660 
G01 X-94.4251 Y24.2420 
G01 X-94.3220 Y24.1001 
G01 X-94.2423 Y23.9438 
G01 X-94.1881 Y23.7770 
G01 X-94.1607 Y23.6038 
G01 X-94.1607 Y23.4284 
G01 X-94.1881 Y23.2552 
G01 X-94.2423 Y23.0884 
G01 X-94.3220 Y22.9321 
G01 X-94.4251 Y22.7902 
G01 X-94.5491 Y22.6662 
G01 X-94.6910 Y22.5631 
G01 X-94.8473 Y22.4834 
G01 X-95.0141 Y22.4292 
G01 X-95.1873 Y22.4018 
G01 X-95.3627 Y22.4018 
G01 X-95.5359 Y22.4292 
G01 X-95.7027 Y22.4834 
G01 X-95.8590 Y22.5631 
G01 X-96.0009 Y22.6662 
G01 X-96.1249 Y22.7902 
G01 X-96.2280 Y22.9321 
G01 X-96.3077 Y23.0884 
G01 X-96.3619 Y23.2552 
G01 X-96.3893 Y23.4284 
G00 Z2.5400 
G00 X-37.8954 Y7.7567 
G01 Z-0.1778 F254.00 
G01 X-37.8587 Y7.6680 F508.00 
G01 X-37.8587 Y0.5870 
G01 X-37.8954 Y0.4983 
G01 X-37.9633 Y0.4304 
G01 X-38.0520 Y0.3937 
G01 X-99.4130 Y0.3937 
G01 X-99.5017 Y0.4304 
G01 X-99.5696 Y0.4983 
G01 X-99.6063 Y0.5870 
G01 X-99.6063 Y49.4130 
G01 X-99.5696 Y49.5017 
G01 X-99.5017 Y49.5696 
G01 X-99.4130 Y49.6063 
G01 X-58.3720 Y49.6063 
G01 X-58.2833 Y49.5696 
G01 X-58.2154 Y49.5017 
G01 X-58.1787 Y49.4130 
G01 X-58.1787 Y43.6347 
G01 X-58.1787 Y43.5869 
G01 X-58.1787 Y43.5387 
G01 X-58.1948 Y43.5000 
G01 X-58.2154 Y43.4500 
G01 X-58.2379 Y43.4275 
G01 X-58.2833 Y43.3821 
G01 X-58.3204 Y43.3668 
G01 X-58.3720 Y43.3454 
G01 X-58.4198 Y43.3454 
G01 X-58.4680 Y43.3454 
G01 X-58.5067 Y43.3615 
G01 X-58.5567 Y43.3821 
G01 X-58.5789 Y43.4044 
G01 X-58.6246 Y43.4500 
G01 X-58.7744 Y43.5999 
G01 X-58.9565 Y43.6753 
G01 X-61.1414 Y43.6753 
G01 X-61.2301 Y43.7120 
G01 X-61.2980 Y43.7799 
G01 X-61.3347 Y43.8686 
G01 X-61.3347 Y43.9042 
G01 X-61.5058 Y44.0753 
G01 X-62.9542 Y44.0753 
G01 X-63.1253 Y43.9042 
G01 X-63.1253 Y42.4558 
G01 X-62.9542 Y42.2847 
G01 X-61.5058 Y42.2847 
G01 X-61.3347 Y42.4558 
G01 X-61.3347 Y42.4914 
G01 X-61.2980 Y42.5801 
G01 X-61.2301 Y42.6480 
G01 X-61.1414 Y42.6847 
G01 X-59.3121 Y42.6847 
G01 X-59.2234 Y42.6480 
G01 X-59.1555 Y42.5801 
G01 X-58.3170 Y41.7416 
G01 X-58.2803 Y41.6529 
G01 X-58.2803 Y39.8303 
G01 X-58.3170 Y39.7416 
G01 X-58.3849 Y39.6737 
G01 X-58.4736 Y39.6370 
G01 X-58.5696 Y39.6370 
G01 X-58.6583 Y39.6737 
G01 X-58.7262 Y39.7416 
G01 X-59.9051 Y40.9206 
G01 X-60.0444 Y41.0599 
G01 X-60.2265 Y41.1353 
G01 X-61.3622 Y41.1353 
G01 X-61.4509 Y41.1720 
G01 X-61.5188 Y41.2399 
G01 X-61.8460 Y41.5671 
G01 X-62.6140 Y41.5671 
G01 X-63.1571 Y41.0240 
G01 X-63.1571 Y40.2560 
G01 X-62.6140 Y39.7129 
G01 X-61.8460 Y39.7129 
G01 X-61.5188 Y40.0401 
G01 X-61.4586 Y40.1003 
G01 X-61.4509 Y40.1080 
G01 X-61.3622 Y40.1447 
G01 X-60.5821 Y40.1447 
G01 X-60.4934 Y40.1080 
G01 X-60.4255 Y40.0401 
G01 X-59.6549 Y39.2694 
G01 X-59.5870 Y39.2016 
G01 X-59.5503 Y39.1129 
G01 X-59.5503 Y31.5753 
G01 X-59.5870 Y31.4866 
G01 X-59.6549 Y31.4187 
G01 X-59.7436 Y31.3820 
G01 X-59.8396 Y31.3820 
G01 X-59.9283 Y31.4187 
G01 X-59.9962 Y31.4866 
G01 X-61.2980 Y32.7884 
G01 X-61.3347 Y32.8771 
G01 X-61.3347 Y33.3908 
G01 X-61.8592 Y33.9153 
G01 X-62.6008 Y33.9153 
G01 X-63.1253 Y33.3908 
G01 X-63.1253 Y32.6492 
G01 X-62.6008 Y32.1247 
G01 X-62.0871 Y32.1247 
G01 X-61.9984 Y32.0880 
G01 X-61.9305 Y32.0201 
G01 X-61.7316 Y31.8212 
G01 X-61.6637 Y31.7533 
G01 X-61.6274 Y31.6656 
G01 X-61.6270 Y31.5686 
G01 X-61.6637 Y31.4799 
G01 X-61.7316 Y31.4120 
G01 X-61.8193 Y31.3757 
G01 X-62.6008 Y31.3753 
G01 X-63.1253 Y30.8508 
G01 X-63.1253 Y30.1092 
G01 X-62.6008 Y29.5847 
G01 X-61.8592 Y29.5847 
G01 X-61.3347 Y30.1092 
G01 X-61.3347 Y30.7937 
G01 X-61.3347 Y30.8412 
G01 X-61.3347 Y30.8897 
G01 X-61.3179 Y30.9302 
G01 X-61.2980 Y30.9784 
G01 X-61.2645 Y31.0118 
G01 X-61.2301 Y31.0463 
G01 X-61.1833 Y31.0656 
G01 X-61.1414 Y31.0830 
G01 X-61.0939 Y31.0830 
G01 X-61.0454 Y31.0830 
G01 X-61.0049 Y31.0662 
G01 X-60.9567 Y31.0463 
G01 X-60.9240 Y31.0135 
G01 X-60.8888 Y30.9784 
G01 X-60.8570 Y30.9466 
G01 X-60.8370 Y30.8983 
G01 X-60.8203 Y30.8579 
G01 X-60.8203 Y30.8094 
G01 X-60.8203 Y8.7915 
G01 X-60.7554 Y8.6349 
G01 X-60.7510 Y8.6241 
G01 X-60.7449 Y8.6094 
G01 X-60.5377 Y8.4022 
G01 X-59.3356 Y7.2001 
G01 X-59.1535 Y7.1247 
G01 X-48.5171 Y7.1247 
G01 X-48.4284 Y7.0880 
G01 X-48.3605 Y7.0201 
G01 X-46.0006 Y4.6601 
G01 X-45.8185 Y4.5847 
G01 X-42.6910 Y4.5847 
G01 X-42.6024 Y4.5480 
G01 X-42.5345 Y4.4801 
G01 X-42.3700 Y4.3156 
G01 X-42.0386 Y4.1783 
G01 X-40.4606 Y4.1783 
G01 X-40.1292 Y4.3156 
G01 X-39.8756 Y4.5692 
G01 X-39.7383 Y4.9006 
G01 X-39.7383 Y5.2594 
G01 X-39.8756 Y5.5908 
G01 X-40.1292 Y5.8444 
G01 X-40.4606 Y5.9817 
G01 X-42.0386 Y5.9817 
G01 X-42.3700 Y5.8444 
G01 X-42.6024 Y5.6120 
G01 X-42.6910 Y5.5753 
G01 X-45.4629 Y5.5753 
G01 X-45.5516 Y5.6120 
G01 X-45.6195 Y5.6799 
G01 X-47.8401 Y7.9006 
G01 X-47.9794 Y8.0399 
G01 X-48.1615 Y8.1153 
G01 X-58.7979 Y8.1153 
G01 X-58.8866 Y8.1520 
G01 X-58.9545 Y8.2199 
G01 X-59.7930 Y9.0584 
G01 X-59.8297 Y9.1471 
G01 X-59.8297 Y10.2080 
G01 X-59.7930 Y10.2967 
G01 X-59.7251 Y10.3646 
G01 X-59.6364 Y10.4013 
G01 X-40.5920 Y10.4013 
G01 X-40.5033 Y10.3646 
G01 X-40.4354 Y10.2967 
G01 X-37.8954 Y7.7567 
G00 Z2.5400 
G00 X-55.4743 Y37.3264 
G01 Z-0.1778 F254.00 
G01 X-55.4743 Y37.6036 F508.00 
G01 X-55.4381 Y37.8784 
G01 X-55.3664 Y38.1461 
G01 X-55.2603 Y38.4021 
G01 X-55.1217 Y38.6422 
G01 X-54.9530 Y38.8620 
G01 X-54.7570 Y39.0580 
G01 X-54.5372 Y39.2267 
G01 X-54.2971 Y39.3653 
G01 X-54.0411 Y39.4714 
G01 X-53.7734 Y39.5431 
G01 X-53.4986 Y39.5793 
G01 X-53.2214 Y39.5793 
G01 X-52.9466 Y39.5431 
G01 X-52.6789 Y39.4714 
G01 X-52.4229 Y39.3653 
G01 X-52.1828 Y39.2267 
G01 X-51.9630 Y39.0580 
G01 X-51.7670 Y38.8620 
G01 X-51.5983 Y38.6422 
G01 X-51.4597 Y38.4021 
G01 X-51.3536 Y38.1461 
G01 X-51.2819 Y37.8784 
G01 X-51.2457 Y37.6036 
G01 X-51.2457 Y37.3264 
G01 X-51.2819 Y37.0516 
G01 X-51.3536 Y36.7839 
G01 X-51.4597 Y36.5279 
G01 X-51.5983 Y36.2878 
G01 X-51.7670 Y36.0680 
G01 X-51.9630 Y35.8720 
G01 X-52.1828 Y35.7033 
G01 X-52.4229 Y35.5647 
G01 X-52.6789 Y35.4586 
G01 X-52.9466 Y35.3869 
G01 X-53.2214 Y35.3507 
G01 X-53.4986 Y35.3507 
G01 X-53.7734 Y35.3869 
G01 X-54.0411 Y35.4586 
G01 X-54.2971 Y35.5647 
G01 X-54.5372 Y35.7033 
G01 X-54.7570 Y35.8720 
G01 X-54.9530 Y36.0680 
G01 X-55.1217 Y36.2878 
G01 X-55.2603 Y36.5279 
G01 X-55.3664 Y36.7839 
G01 X-55.4381 Y37.0516 
G01 X-55.4743 Y37.3264 
G00 Z2.5400 
G00 X-19.8743 Y37.3264 
G01 Z-0.1778 F254.00 
G01 X-19.8743 Y37.6036 F508.00 
G01 X-19.8381 Y37.8784 
G01 X-19.7664 Y38.1461 
G01 X-19.6603 Y38.4021 
G01 X-19.5217 Y38.6422 
G01 X-19.3530 Y38.8620 
G01 X-19.1570 Y39.0580 
G01 X-18.9372 Y39.2267 
G01 X-18.6971 Y39.3653 
G01 X-18.4411 Y39.4714 
G01 X-18.1734 Y39.5431 
G01 X-17.8986 Y39.5793 
G01 X-17.6214 Y39.5793 
G01 X-17.3466 Y39.5431 
G01 X-17.0789 Y39.4714 
G01 X-16.8229 Y39.3653 
G01 X-16.5828 Y39.2267 
G01 X-16.3630 Y39.0580 
G01 X-16.1670 Y38.8620 
G01 X-15.9983 Y38.6422 
G01 X-15.8597 Y38.4021 
G01 X-15.7536 Y38.1461 
G01 X-15.6819 Y37.8784 
G01 X-15.6457 Y37.6036 
G01 X-15.6457 Y37.3264 
G01 X-15.6819 Y37.0516 
G01 X-15.7536 Y36.7839 
G01 X-15.8597 Y36.5279 
G01 X-15.9983 Y36.2878 
G01 X-16.1670 Y36.0680 
G01 X-16.3630 Y35.8720 
G01 X-16.5828 Y35.7033 
G01 X-16.8229 Y35.5647 
G01 X-17.0789 Y35.4586 
G01 X-17.3466 Y35.3869 
G01 X-17.6214 Y35.3507 
G01 X-17.8986 Y35.3507 
G01 X-18.1734 Y35.3869 
G01 X-18.4411 Y35.4586 
G01 X-18.6971 Y35.5647 
G01 X-18.9372 Y35.7033 
G01 X-19.1570 Y35.8720 
G01 X-19.3530 Y36.0680 
G01 X-19.5217 Y36.2878 
G01 X-19.6603 Y36.5279 
G01 X-19.7664 Y36.7839 
G01 X-19.8381 Y37.0516 
G01 X-19.8743 Y37.3264 
G00 Z2.5400 
G00 X-55.4743 Y18.2764 
G01 Z-0.1778 F254.00 
G01 X-55.4743 Y18.5536 F508.00 
G01 X-55.4381 Y18.8284 
G01 X-55.3664 Y19.0961 
G01 X-55.2603 Y19.3521 
G01 X-55.1217 Y19.5922 
G01 X-54.9530 Y19.8120 
G01 X-54.7570 Y20.0080 
G01 X-54.5372 Y20.1767 
G01 X-54.2971 Y20.3153 
G01 X-54.0411 Y20.4214 
G01 X-53.7734 Y20.4931 
G01 X-53.4986 Y20.5293 
G01 X-53.2214 Y20.5293 
G01 X-52.9466 Y20.4931 
G01 X-52.6789 Y20.4214 
G01 X-52.4229 Y20.3153 
G01 X-52.1828 Y20.1767 
G01 X-51.9630 Y20.0080 
G01 X-51.7670 Y19.8120 
G01 X-51.5983 Y19.5922 
G01 X-51.4597 Y19.3521 
G01 X-51.3536 Y19.0961 
G01 X-51.2819 Y18.8284 
G01 X-51.2457 Y18.5536 
G01 X-51.2457 Y18.2764 
G01 X-51.2819 Y18.0016 
G01 X-51.3536 Y17.7339 
G01 X-51.4597 Y17.4779 
G01 X-51.5983 Y17.2378 
G01 X-51.7670 Y17.0180 
G01 X-51.9630 Y16.8220 
G01 X-52.1828 Y16.6532 
G01 X-52.4229 Y16.5147 
G01 X-52.6789 Y16.4086 
G01 X-52.9466 Y16.3369 
G01 X-53.2214 Y16.3007 
G01 X-53.4986 Y16.3007 
G01 X-53.7734 Y16.3369 
G01 X-54.0411 Y16.4086 
G01 X-54.2971 Y16.5147 
G01 X-54.5372 Y16.6532 
G01 X-54.7570 Y16.8220 
G01 X-54.9530 Y17.0180 
G01 X-55.1217 Y17.2378 
G01 X-55.2603 Y17.4779 
G01 X-55.3664 Y17.7339 
G01 X-55.4381 Y18.0016 
G01 X-55.4743 Y18.2764 
G00 Z2.5400 
G00 X-19.8743 Y18.2764 
G01 Z-0.1778 F254.00 
G01 X-19.8743 Y18.5536 F508.00 
G01 X-19.8381 Y18.8284 
G01 X-19.7664 Y19.0961 
G01 X-19.6603 Y19.3521 
G01 X-19.5217 Y19.5922 
G01 X-19.3530 Y19.8120 
G01 X-19.1570 Y20.0080 
G01 X-18.9372 Y20.1767 
G01 X-18.6971 Y20.3153 
G01 X-18.4411 Y20.4214 
G01 X-18.1734 Y20.4931 
G01 X-17.8986 Y20.5293 
G01 X-17.6214 Y20.5293 
G01 X-17.3466 Y20.4931 
G01 X-17.0789 Y20.4214 
G01 X-16.8229 Y20.3153 
G01 X-16.5828 Y20.1767 
G01 X-16.3630 Y20.0080 
G01 X-16.1670 Y19.8120 
G01 X-15.9983 Y19.5922 
G01 X-15.8597 Y19.3521 
G01 X-15.7536 Y19.0961 
G01 X-15.6819 Y18.8284 
G01 X-15.6457 Y18.5536 
G01 X-15.6457 Y18.2764 
G01 X-15.6819 Y18.0016 
G01 X-15.7536 Y17.7339 
G01 X-15.8597 Y17.4779 
G01 X-15.9983 Y17.2378 
G01 X-16.1670 Y17.0180 
G01 X-16.3630 Y16.8220 
G01 X-16.5828 Y16.6532 
G01 X-16.8229 Y16.5147 
G01 X-17.0789 Y16.4086 
G01 X-17.3466 Y16.3369 
G01 X-17.6214 Y16.3007 
G01 X-17.8986 Y16.3007 
G01 X-18.1734 Y16.3369 
G01 X-18.4411 Y16.4086 
G01 X-18.6971 Y16.5147 
G01 X-18.9372 Y16.6532 
G01 X-19.1570 Y16.8220 
G01 X-19.3530 Y17.0180 
G01 X-19.5217 Y17.2378 
G01 X-19.6603 Y17.4779 
G01 X-19.7664 Y17.7339 
G01 X-19.8381 Y18.0016 
G01 X-19.8743 Y18.2764 
G00 Z2.5400 
G00 X-29.5098 Y8.3439 
G01 Z-0.1778 F254.00 
G01 X-28.9102 Y8.3439 F508.00 
G01 X-28.8086 Y8.2423 
G01 X-25.9737 Y8.2423 
G01 X-25.8535 Y8.2184 
G01 X-25.7402 Y8.1715 
G01 X-25.6383 Y8.1034 
G01 X-25.5516 Y8.0167 
G01 X-25.5342 Y7.9993 
G01 X-24.9799 Y7.9993 
G01 X-24.3857 Y7.4051 
G01 X-24.3857 Y6.5649 
G01 X-24.9799 Y5.9707 
G01 X-25.8201 Y5.9707 
G01 X-26.4143 Y6.5649 
G01 X-26.4143 Y6.9977 
G01 X-28.8086 Y6.9977 
G01 X-28.9102 Y6.8961 
G01 X-29.5098 Y6.8961 
G01 X-29.6114 Y6.9977 
G01 X-31.4291 Y6.9977 
G01 X-31.4579 Y6.9785 
G01 X-31.5896 Y6.9239 
G01 X-31.7295 Y6.8961 
G01 X-33.0913 Y6.8961 
G01 X-33.2312 Y6.9239 
G01 X-33.3629 Y6.9785 
G01 X-33.4815 Y7.0577 
G01 X-33.5823 Y7.1585 
G01 X-33.6615 Y7.2771 
G01 X-33.7161 Y7.4088 
G01 X-33.7439 Y7.5487 
G01 X-33.7439 Y7.6913 
G01 X-33.7161 Y7.8312 
G01 X-33.6615 Y7.9629 
G01 X-33.5823 Y8.0815 
G01 X-33.4815 Y8.1823 
G01 X-33.3629 Y8.2615 
G01 X-33.2312 Y8.3161 
G01 X-33.0913 Y8.3439 
G01 X-31.7295 Y8.3439 
G01 X-31.5896 Y8.3161 
G01 X-31.4579 Y8.2615 
G01 X-31.4291 Y8.2423 
G01 X-29.6114 Y8.2423 
G01 X-29.5098 Y8.3439 
G00 Z2.5400 
G00 X-21.3843 Y6.5442 
G01 Z-0.1778 F254.00 
G01 X-21.3843 Y7.4258 F508.00 
G01 X-20.7608 Y8.0493 
G01 X-19.8792 Y8.0493 
G01 X-19.2557 Y7.4258 
G01 X-19.2557 Y6.5442 
G01 X-19.8792 Y5.9207 
G01 X-20.7608 Y5.9207 
G01 X-21.3843 Y6.5442 
G00 Z2.5400 
G00 X-6.1693 Y33.5462 
G01 Z-0.1778 F254.00 
G01 X-6.1693 Y33.7216 F508.00 
G01 X-6.1419 Y33.8948 
G01 X-6.0877 Y34.0616 
G01 X-6.0080 Y34.2179 
G01 X-5.9049 Y34.3598 
G01 X-5.7809 Y34.4838 
G01 X-5.6390 Y34.5869 
G01 X-5.4827 Y34.6666 
G01 X-5.3159 Y34.7208 
G01 X-5.1427 Y34.7482 
G01 X-4.9673 Y34.7482 
G01 X-4.7941 Y34.7208 
G01 X-4.6273 Y34.6666 
G01 X-4.4710 Y34.5869 
G01 X-4.3291 Y34.4838 
G01 X-4.2051 Y34.3598 
G01 X-4.1020 Y34.2179 
G01 X-4.0223 Y34.0616 
G01 X-3.9681 Y33.8948 
G01 X-3.9407 Y33.7216 
G01 X-3.9407 Y33.5462 
G01 X-3.9681 Y33.3730 
G01 X-4.0223 Y33.2062 
G01 X-4.1020 Y33.0499 
G01 X-4.2051 Y32.9080 
G01 X-4.3291 Y32.7840 
G01 X-4.4710 Y32.6809 
G01 X-4.6273 Y32.6012 
G01 X-4.7941 Y32.5470 
G01 X-4.9673 Y32.5196 
G01 X-5.1427 Y32.5196 
G01 X-5.3159 Y32.5470 
G01 X-5.4827 Y32.6012 
G01 X-5.6390 Y32.6809 
G01 X-5.7809 Y32.7840 
G01 X-5.9049 Y32.9080 
G01 X-6.0080 Y33.0499 
G01 X-6.0877 Y33.2062 
G01 X-6.1419 Y33.3730 
G01 X-6.1693 Y33.5462 
G00 Z2.5400 
G00 X-6.1693 Y28.4662 
G01 Z-0.1778 F254.00 
G01 X-6.1693 Y28.6416 F508.00 
G01 X-6.1419 Y28.8148 
G01 X-6.0877 Y28.9816 
G01 X-6.0080 Y29.1379 
G01 X-5.9049 Y29.2798 
G01 X-5.7809 Y29.4038 
G01 X-5.6390 Y29.5069 
G01 X-5.4827 Y29.5866 
G01 X-5.3159 Y29.6408 
G01 X-5.1427 Y29.6682 
G01 X-4.9673 Y29.6682 
G01 X-4.7941 Y29.6408 
G01 X-4.6273 Y29.5866 
G01 X-4.4710 Y29.5069 
G01 X-4.3291 Y29.4038 
G01 X-4.2051 Y29.2798 
G01 X-4.1020 Y29.1379 
G01 X-4.0223 Y28.9816 
G01 X-3.9681 Y28.8148 
G01 X-3.9407 Y28.6416 
G01 X-3.9407 Y28.4662 
G01 X-3.9681 Y28.2930 
G01 X-4.0223 Y28.1262 
G01 X-4.1020 Y27.9699 
G01 X-4.2051 Y27.8280 
G01 X-4.3291 Y27.7040 
G01 X-4.4710 Y27.6009 
G01 X-4.6273 Y27.5212 
G01 X-4.7941 Y27.4670 
G01 X-4.9673 Y27.4396 
G01 X-5.1427 Y27.4396 
G01 X-5.3159 Y27.4670 
G01 X-5.4827 Y27.5212 
G01 X-5.6390 Y27.6009 
G01 X-5.7809 Y27.7040 
G01 X-5.9049 Y27.8280 
G01 X-6.0080 Y27.9699 
G01 X-6.0877 Y28.1262 
G01 X-6.1419 Y28.2930 
G01 X-6.1693 Y28.4662 
G00 Z2.5400 
G00 X-23.8743 Y46.5699 
G01 Z-0.1778 F254.00 
G01 X-23.8743 Y47.4101 F508.00 
G01 X-23.2801 Y48.0043 
G01 X-22.4399 Y48.0043 
G01 X-21.8457 Y47.4101 
G01 X-21.8457 Y46.5699 
G01 X-22.2377 Y46.1779 
G01 X-22.2377 Y45.9778 
G01 X-20.6132 Y44.3533 
G01 X-20.6025 Y44.3568 
G01 X-20.4150 Y44.3865 
G01 X-14.5061 Y44.3865 
G01 X-14.3186 Y44.3568 
G01 X-14.1380 Y44.2981 
G01 X-13.9688 Y44.2119 
G01 X-13.8151 Y44.1003 
G01 X-13.6808 Y43.9660 
G01 X-9.6543 Y39.9394 
G01 X-4.9551 Y39.9200 
G01 X-4.7676 Y39.8895 
G01 X-4.5872 Y39.8301 
G01 X-4.4184 Y39.7432 
G01 X-4.2652 Y39.6309 
G01 X-4.1315 Y39.4961 
G01 X-4.0205 Y39.3420 
G01 X-3.9350 Y39.1724 
G01 X-3.8771 Y38.9916 
G01 X-3.8481 Y38.8039 
G01 X-3.8489 Y38.6140 
G01 X-3.8794 Y38.4265 
G01 X-3.9388 Y38.2461 
G01 X-4.0257 Y38.0773 
G01 X-4.1380 Y37.9241 
G01 X-4.2728 Y37.7904 
G01 X-4.4269 Y37.6794 
G01 X-4.5965 Y37.5939 
G01 X-4.7773 Y37.5359 
G01 X-4.9650 Y37.5070 
G01 X-10.1586 Y37.5285 
G01 X-10.2511 Y37.5285 
G01 X-10.2560 Y37.5289 
G01 X-10.3474 Y37.5438 
G01 X-10.4386 Y37.5582 
G01 X-10.4435 Y37.5594 
G01 X-10.5314 Y37.5884 
G01 X-10.6192 Y37.6169 
G01 X-10.6239 Y37.6188 
G01 X-10.7065 Y37.6614 
G01 X-10.7884 Y37.7031 
G01 X-10.7927 Y37.7057 
G01 X-10.8676 Y37.7606 
G01 X-10.9421 Y37.8147 
G01 X-10.9459 Y37.8180 
G01 X-11.0107 Y37.8833 
G01 X-15.1009 Y41.9735 
G01 X-19.8203 Y41.9735 
G01 X-26.7335 Y35.0603 
G01 X-26.7335 Y34.8008 
G01 X-26.7257 Y34.7930 
G01 X-26.7257 Y33.7870 
G01 X-27.4370 Y33.0757 
G01 X-28.4430 Y33.0757 
G01 X-29.1543 Y33.7870 
G01 X-29.1543 Y34.7930 
G01 X-29.1465 Y34.8008 
G01 X-29.1465 Y35.6550 
G01 X-29.1168 Y35.8425 
G01 X-29.0581 Y36.0231 
G01 X-28.9719 Y36.1923 
G01 X-28.8603 Y36.3460 
G01 X-28.7260 Y36.4803 
G01 X-21.6132 Y43.5931 
G01 X-23.3434 Y45.3233 
G01 X-23.4115 Y45.4252 
G01 X-23.4584 Y45.5385 
G01 X-23.4823 Y45.6587 
G01 X-23.4823 Y46.1779 
G01 X-23.8743 Y46.5699 
G00 Z2.5400 
G00 X-25.1443 Y27.5199 
G01 Z-0.1778 F254.00 
G01 X-25.1443 Y28.3601 F508.00 
G01 X-24.5501 Y28.9543 
G01 X-23.7099 Y28.9543 
G01 X-23.1157 Y28.3601 
G01 X-23.1157 Y27.5199 
G01 X-23.7099 Y26.9257 
G01 X-24.5501 Y26.9257 
G01 X-25.1443 Y27.5199 
G00 Z2.5400 
G00 X-30.2743 Y27.4992 
G01 Z-0.1778 F254.00 
G01 X-30.2743 Y28.3808 F508.00 
G01 X-29.6508 Y29.0043 
G01 X-28.7692 Y29.0043 
G01 X-28.1457 Y28.3808 
G01 X-28.1457 Y27.4992 
G01 X-28.7692 Y26.8757 
G01 X-29.6508 Y26.8757 
G01 X-30.2743 Y27.4992 
G00 Z2.5400 
G00 X-44.1943 Y44.0299 
G01 Z-0.1778 F254.00 
G01 X-44.1943 Y44.8701 F508.00 
G01 X-43.6001 Y45.4643 
G01 X-43.0458 Y45.4643 
G01 X-41.0367 Y47.4734 
G01 X-40.9348 Y47.5415 
G01 X-40.8215 Y47.5884 
G01 X-40.7013 Y47.6123 
G01 X-28.8228 Y47.6123 
G01 X-28.3808 Y48.0543 
G01 X-27.4992 Y48.0543 
G01 X-26.8757 Y47.4308 
G01 X-26.8757 Y46.5492 
G01 X-27.4992 Y45.9257 
G01 X-28.3808 Y45.9257 
G01 X-28.8228 Y46.3677 
G01 X-40.3822 Y46.3677 
G01 X-42.1657 Y44.5842 
G01 X-42.1657 Y44.0299 
G01 X-42.7599 Y43.4357 
G01 X-43.6001 Y43.4357 
G01 X-44.1943 Y44.0299 
G00 Z2.5400 
G00 X-44.1943 Y24.9799 
G01 Z-0.1778 F254.00 
G01 X-44.1943 Y25.8201 F508.00 
G01 X-43.6001 Y26.4143 
G01 X-42.7599 Y26.4143 
G01 X-42.1657 Y25.8201 
G01 X-42.1657 Y24.9799 
G01 X-42.7599 Y24.3857 
G01 X-43.6001 Y24.3857 
G01 X-44.1943 Y24.9799 
G00 Z2.5400 
G00 X-31.7295 Y1.8161 
G01 Z-0.1778 F254.00 
G01 X-33.0913 Y1.8161 F508.00 
G01 X-33.2312 Y1.8439 
G01 X-33.3629 Y1.8985 
G01 X-33.4815 Y1.9777 
G01 X-33.5823 Y2.0785 
G01 X-33.6615 Y2.1971 
G01 X-33.7161 Y2.3288 
G01 X-33.7439 Y2.4687 
G01 X-33.7439 Y2.6113 
G01 X-33.7161 Y2.7512 
G01 X-33.6615 Y2.8829 
G01 X-33.5823 Y3.0015 
G01 X-33.4815 Y3.1023 
G01 X-33.3629 Y3.1815 
G01 X-33.2312 Y3.2361 
G01 X-33.0913 Y3.2639 
G01 X-31.7295 Y3.2639 
G01 X-31.5896 Y3.2361 
G01 X-31.4579 Y3.1815 
G01 X-31.3393 Y3.1023 
G01 X-31.2385 Y3.0015 
G01 X-31.1593 Y2.8829 
G01 X-31.1047 Y2.7512 
G01 X-31.0769 Y2.6113 
G01 X-31.0769 Y2.4687 
G01 X-31.1047 Y2.3288 
G01 X-31.1593 Y2.1971 
G01 X-31.2385 Y2.0785 
G01 X-31.3393 Y1.9777 
G01 X-31.4579 Y1.8985 
G01 X-31.5896 Y1.8439 
G01 X-31.7295 Y1.8161 
G00 Z2.5400 
G00 X-31.7295 Y4.3561 
G01 Z-0.1778 F254.00 
G01 X-33.0913 Y4.3561 F508.00 
G01 X-33.2312 Y4.3839 
G01 X-33.3629 Y4.4385 
G01 X-33.4815 Y4.5177 
G01 X-33.5823 Y4.6185 
G01 X-33.6615 Y4.7371 
G01 X-33.7161 Y4.8688 
G01 X-33.7439 Y5.0087 
G01 X-33.7439 Y5.1513 
G01 X-33.7161 Y5.2912 
G01 X-33.6615 Y5.4229 
G01 X-33.5823 Y5.5415 
G01 X-33.4815 Y5.6423 
G01 X-33.3629 Y5.7215 
G01 X-33.2312 Y5.7761 
G01 X-33.0913 Y5.8039 
G01 X-31.7295 Y5.8039 
G01 X-31.5896 Y5.7761 
G01 X-31.4579 Y5.7215 
G01 X-31.4291 Y5.7023 
G01 X-29.6114 Y5.7023 
G01 X-29.5098 Y5.8039 
G01 X-28.9102 Y5.8039 
G01 X-28.4861 Y5.3798 
G01 X-28.4861 Y5.2362 
G01 X-27.0472 Y3.7973 
G01 X-26.2121 Y3.7973 
G01 X-25.8201 Y4.1893 
G01 X-24.9799 Y4.1893 
G01 X-24.3857 Y3.5951 
G01 X-24.3857 Y2.7549 
G01 X-24.9799 Y2.1607 
G01 X-25.8201 Y2.1607 
G01 X-26.2121 Y2.5527 
G01 X-27.3663 Y2.5527 
G01 X-27.4865 Y2.5766 
G01 X-27.5998 Y2.6235 
G01 X-27.7017 Y2.6916 
G01 X-29.3662 Y4.3561 
G01 X-29.5098 Y4.3561 
G01 X-29.6114 Y4.4577 
G01 X-31.4291 Y4.4577 
G01 X-31.4579 Y4.4385 
G01 X-31.5896 Y4.3839 
G01 X-31.7295 Y4.3561 
G00 Z2.5400 
G00 X-41.5925 Y33.8955 
G01 Z-0.1778 F254.00 
G01 X-41.5925 Y34.6845 F508.00 
G01 X-41.0345 Y35.2425 
G01 X-40.2455 Y35.2425 
G01 X-39.6875 Y34.6845 
G01 X-39.6875 Y33.8955 
G01 X-40.2455 Y33.3375 
G01 X-41.0345 Y33.3375 
G01 X-41.5925 Y33.8955 
G00 Z2.5400 
G00 X-34.2343 Y33.7870 
G01 Z-0.1778 F254.00 
G01 X-34.2343 Y34.7930 F508.00 
G01 X-33.6423 Y35.3850 
G01 X-33.6423 Y43.6379 
G01 X-34.0343 Y44.0299 
G01 X-34.0343 Y44.8701 
G01 X-33.4401 Y45.4643 
G01 X-32.5999 Y45.4643 
G01 X-32.0057 Y44.8701 
G01 X-32.0057 Y44.0299 
G01 X-32.3977 Y43.6379 
G01 X-32.3977 Y35.3850 
G01 X-31.8057 Y34.7930 
G01 X-31.8057 Y33.7870 
G01 X-31.8135 Y33.7792 
G01 X-31.8135 Y24.0454 
G01 X-23.3445 Y24.0454 
G01 X-21.2432 Y26.1819 
G01 X-21.2403 Y26.1860 
G01 X-21.1765 Y26.2498 
G01 X-21.1136 Y26.3137 
G01 X-21.1096 Y26.3167 
G01 X-21.1060 Y26.3203 
G01 X-21.0331 Y26.3732 
G01 X-20.9609 Y26.4266 
G01 X-20.9564 Y26.4289 
G01 X-20.9523 Y26.4319 
G01 X-20.8723 Y26.4727 
G01 X-20.7924 Y26.5142 
G01 X-20.7876 Y26.5158 
G01 X-20.7831 Y26.5181 
G01 X-20.6977 Y26.5459 
G01 X-20.6123 Y26.5744 
G01 X-20.6073 Y26.5752 
G01 X-20.6025 Y26.5768 
G01 X-20.5136 Y26.5909 
G01 X-20.4250 Y26.6057 
G01 X-20.4199 Y26.6057 
G01 X-20.4150 Y26.6065 
G01 X-20.3249 Y26.6065 
G01 X-20.2351 Y26.6072 
G01 X-20.2301 Y26.6065 
G01 X-15.1450 Y26.6065 
G01 X-14.9575 Y26.5768 
G01 X-14.7769 Y26.5181 
G01 X-14.6077 Y26.4319 
G01 X-14.4540 Y26.3203 
G01 X-14.3197 Y26.1860 
G01 X-12.8141 Y24.6804 
G01 X-4.9600 Y24.6804 
G01 X-4.7725 Y24.6507 
G01 X-4.5919 Y24.5920 
G01 X-4.4227 Y24.5058 
G01 X-4.2690 Y24.3942 
G01 X-4.1347 Y24.2599 
G01 X-4.0231 Y24.1062 
G01 X-3.9369 Y23.9370 
G01 X-3.8782 Y23.7564 
G01 X-3.8485 Y23.5689 
G01 X-3.8485 Y23.3789 
G01 X-3.8782 Y23.1914 
G01 X-3.9369 Y23.0108 
G01 X-4.0231 Y22.8416 
G01 X-4.1347 Y22.6879 
G01 X-4.2690 Y22.5536 
G01 X-4.4227 Y22.4420 
G01 X-4.5919 Y22.3558 
G01 X-4.7725 Y22.2971 
G01 X-4.9600 Y22.2674 
G01 X-13.4089 Y22.2674 
G01 X-13.5964 Y22.2971 
G01 X-13.7770 Y22.3558 
G01 X-13.9462 Y22.4420 
G01 X-14.0999 Y22.5536 
G01 X-15.7398 Y24.1935 
G01 X-19.8144 Y24.1935 
G01 X-21.9157 Y22.0570 
G01 X-21.9186 Y22.0529 
G01 X-21.9824 Y21.9891 
G01 X-22.0453 Y21.9252 
G01 X-22.0493 Y21.9222 
G01 X-22.0529 Y21.9186 
G01 X-22.1258 Y21.8657 
G01 X-22.1980 Y21.8123 
G01 X-22.2025 Y21.8100 
G01 X-22.2066 Y21.8070 
G01 X-22.2866 Y21.7662 
G01 X-22.3665 Y21.7247 
G01 X-22.3713 Y21.7231 
G01 X-22.3758 Y21.7208 
G01 X-22.4612 Y21.6930 
G01 X-22.5466 Y21.6645 
G01 X-22.5516 Y21.6637 
G01 X-22.5564 Y21.6621 
G01 X-22.6453 Y21.6480 
G01 X-22.7339 Y21.6332 
G01 X-22.7390 Y21.6332 
G01 X-22.7439 Y21.6324 
G01 X-22.8340 Y21.6324 
G01 X-22.9238 Y21.6317 
G01 X-22.9288 Y21.6324 
G01 X-31.8135 Y21.6324 
G01 X-31.8135 Y15.7508 
G01 X-31.8057 Y15.7430 
G01 X-31.8057 Y14.7370 
G01 X-32.5170 Y14.0257 
G01 X-33.5230 Y14.0257 
G01 X-34.2343 Y14.7370 
G01 X-34.2343 Y15.7430 
G01 X-34.2265 Y15.7508 
G01 X-34.2265 Y33.7792 
G01 X-34.2343 Y33.7870 
G00 Z2.5400 
G00 X-44.1325 Y14.8455 
G01 Z-0.1778 F254.00 
G01 X-44.1325 Y14.9225 F508.00 
G01 X-57.8268 Y14.9225 
G01 X-57.9076 Y14.9441 
G01 X-57.9799 Y14.9859 
G01 X-59.2499 Y16.2559 
G01 X-59.3091 Y16.3150 
G01 X-59.3509 Y16.3874 
G01 X-59.3725 Y16.4682 
G01 X-59.3725 Y39.2385 
G01 X-60.4565 Y40.3225 
G01 X-61.4878 Y40.3225 
G01 X-61.9196 Y39.8907 
G01 X-62.5404 Y39.8907 
G01 X-62.9793 Y40.3296 
G01 X-62.9793 Y40.9504 
G01 X-62.5404 Y41.3893 
G01 X-61.9196 Y41.3893 
G01 X-61.4878 Y40.9575 
G01 X-60.2832 Y40.9575 
G01 X-60.2024 Y40.9359 
G01 X-60.1301 Y40.8941 
G01 X-60.0709 Y40.8349 
G01 X-58.8009 Y39.5649 
G01 X-58.7591 Y39.4926 
G01 X-58.7375 Y39.4118 
G01 X-58.7375 Y16.6415 
G01 X-57.6535 Y15.5575 
G01 X-44.1325 Y15.5575 
G01 X-44.1325 Y15.6345 
G01 X-43.5745 Y16.1925 
G01 X-42.7855 Y16.1925 
G01 X-42.2275 Y15.6345 
G01 X-42.2275 Y14.8455 
G01 X-42.7855 Y14.2875 
G01 X-43.5745 Y14.2875 
G01 X-44.1325 Y14.8455 
G00 Z2.5400 
G00 X-41.5925 Y14.8455 
G01 Z-0.1778 F254.00 
G01 X-41.5925 Y15.6345 F508.00 
G01 X-41.0345 Y16.1925 
G01 X-40.2455 Y16.1925 
G01 X-39.6875 Y15.6345 
G01 X-39.6875 Y14.8455 
G01 X-40.2455 Y14.2875 
G01 X-41.0345 Y14.2875 
G01 X-41.5925 Y14.8455 
G00 Z2.5400 
G00 X-29.1543 Y14.7370 
G01 Z-0.1778 F254.00 
G01 X-29.1543 Y15.7430 F508.00 
G01 X-28.4430 Y16.4543 
G01 X-27.4370 Y16.4543 
G01 X-27.4292 Y16.4465 
G01 X-22.7650 Y16.4465 
G01 X-22.5775 Y16.4168 
G01 X-22.3969 Y16.3581 
G01 X-22.2277 Y16.2719 
G01 X-22.0740 Y16.1603 
G01 X-21.9397 Y16.0260 
G01 X-19.8202 Y13.9065 
G01 X-14.4698 Y13.9065 
G01 X-9.0621 Y19.3142 
G01 X-8.9084 Y19.4258 
G01 X-8.7392 Y19.5120 
G01 X-8.5586 Y19.5707 
G01 X-8.3711 Y19.6004 
G01 X-4.9600 Y19.6004 
G01 X-4.7725 Y19.5707 
G01 X-4.5919 Y19.5120 
G01 X-4.4227 Y19.4258 
G01 X-4.2690 Y19.3142 
G01 X-4.1347 Y19.1799 
G01 X-4.0231 Y19.0262 
G01 X-3.9369 Y18.8570 
G01 X-3.8782 Y18.6764 
G01 X-3.8485 Y18.4889 
G01 X-3.8485 Y18.2989 
G01 X-3.8782 Y18.1114 
G01 X-3.9369 Y17.9308 
G01 X-4.0231 Y17.7616 
G01 X-4.1347 Y17.6079 
G01 X-4.2690 Y17.4736 
G01 X-4.4227 Y17.3620 
G01 X-4.5919 Y17.2758 
G01 X-4.7725 Y17.2171 
G01 X-4.9600 Y17.1874 
G01 X-7.7763 Y17.1874 
G01 X-13.0497 Y11.9140 
G01 X-13.1840 Y11.7797 
G01 X-13.3377 Y11.6681 
G01 X-13.5069 Y11.5819 
G01 X-13.6875 Y11.5232 
G01 X-13.8750 Y11.4935 
G01 X-20.4150 Y11.4935 
G01 X-20.6025 Y11.5232 
G01 X-20.7831 Y11.5819 
G01 X-20.9523 Y11.6681 
G01 X-21.1060 Y11.7797 
G01 X-23.3598 Y14.0335 
G01 X-27.4292 Y14.0335 
G01 X-27.4370 Y14.0257 
G01 X-28.4430 Y14.0257 
G01 X-29.1543 Y14.7370 
G00 Z2.5400 
G00 X-62.9475 Y30.1828 
G01 Z-0.1778 F254.00 
G01 X-62.9475 Y30.7772 F508.00 
G01 X-62.5272 Y31.1975 
G01 X-61.9328 Y31.1975 
G01 X-61.5125 Y30.7772 
G01 X-61.5125 Y30.1828 
G01 X-61.9328 Y29.7625 
G01 X-62.5272 Y29.7625 
G01 X-62.9475 Y30.1828 
G00 Z2.5400 
G00 X-62.9475 Y32.7228 
G01 Z-0.1778 F254.00 
G01 X-62.9475 Y33.3172 F508.00 
G01 X-62.5272 Y33.7375 
G01 X-61.9328 Y33.7375 
G01 X-61.5125 Y33.3172 
G01 X-61.5125 Y32.7515 
G01 X-60.0709 Y31.3099 
G01 X-60.0291 Y31.2376 
G01 X-60.0075 Y31.1568 
G01 X-60.0075 Y9.0215 
G01 X-58.9235 Y7.9375 
G01 X-48.2182 Y7.9375 
G01 X-48.1374 Y7.9159 
G01 X-48.0650 Y7.8741 
G01 X-48.0059 Y7.8149 
G01 X-45.5885 Y5.3975 
G01 X-42.5112 Y5.3975 
G01 X-42.5007 Y5.4229 
G01 X-42.4215 Y5.5415 
G01 X-42.3207 Y5.6423 
G01 X-42.2021 Y5.7215 
G01 X-42.0704 Y5.7761 
G01 X-41.9305 Y5.8039 
G01 X-40.5687 Y5.8039 
G01 X-40.4288 Y5.7761 
G01 X-40.2971 Y5.7215 
G01 X-40.1785 Y5.6423 
G01 X-40.0777 Y5.5415 
G01 X-39.9985 Y5.4229 
G01 X-39.9439 Y5.2912 
G01 X-39.9161 Y5.1513 
G01 X-39.9161 Y5.0087 
G01 X-39.9439 Y4.8688 
G01 X-39.9985 Y4.7371 
G01 X-40.0777 Y4.6185 
G01 X-40.1785 Y4.5177 
G01 X-40.2971 Y4.4385 
G01 X-40.4288 Y4.3839 
G01 X-40.5687 Y4.3561 
G01 X-41.9305 Y4.3561 
G01 X-42.0704 Y4.3839 
G01 X-42.2021 Y4.4385 
G01 X-42.3207 Y4.5177 
G01 X-42.4215 Y4.6185 
G01 X-42.5007 Y4.7371 
G01 X-42.5112 Y4.7625 
G01 X-45.7618 Y4.7625 
G01 X-45.8426 Y4.7841 
G01 X-45.9149 Y4.8259 
G01 X-48.3915 Y7.3025 
G01 X-59.0968 Y7.3025 
G01 X-59.1776 Y7.3241 
G01 X-59.2499 Y7.3659 
G01 X-60.5199 Y8.6359 
G01 X-60.5791 Y8.6951 
G01 X-60.6209 Y8.7674 
G01 X-60.6425 Y8.8482 
G01 X-60.6425 Y30.9835 
G01 X-61.9615 Y32.3025 
G01 X-62.5272 Y32.3025 
G01 X-62.9475 Y32.7228 
G00 Z2.5400 
G00 X-62.9475 Y42.5541 
G01 Z-0.1778 F254.00 
G01 X-62.9475 Y43.8059 F508.00 
G01 X-62.9301 Y43.8479 
G01 X-62.8979 Y43.8801 
G01 X-62.8559 Y43.8975 
G01 X-61.6041 Y43.8975 
G01 X-61.5621 Y43.8801 
G01 X-61.5299 Y43.8479 
G01 X-61.5125 Y43.8059 
G01 X-61.5125 Y43.4975 
G01 X-59.0132 Y43.4975 
G01 X-58.9324 Y43.4759 
G01 X-58.8601 Y43.4341 
G01 X-58.8009 Y43.3749 
G01 X-57.5309 Y42.1049 
G01 X-57.4891 Y42.0326 
G01 X-57.4675 Y41.9518 
G01 X-57.4675 Y35.6915 
G01 X-56.3835 Y34.6075 
G01 X-44.1325 Y34.6075 
G01 X-44.1325 Y34.6845 
G01 X-43.5745 Y35.2425 
G01 X-42.7855 Y35.2425 
G01 X-42.2275 Y34.6845 
G01 X-42.2275 Y33.8955 
G01 X-42.7855 Y33.3375 
G01 X-43.5745 Y33.3375 
G01 X-44.1325 Y33.8955 
G01 X-44.1325 Y33.9725 
G01 X-56.5568 Y33.9725 
G01 X-56.6376 Y33.9941 
G01 X-56.7099 Y34.0359 
G01 X-57.9799 Y35.3059 
G01 X-58.0391 Y35.3651 
G01 X-58.0809 Y35.4374 
G01 X-58.1025 Y35.5182 
G01 X-58.1025 Y41.7785 
G01 X-59.1865 Y42.8625 
G01 X-61.5125 Y42.8625 
G01 X-61.5125 Y42.5541 
G01 X-61.5299 Y42.5121 
G01 X-61.5621 Y42.4799 
G01 X-61.6041 Y42.4625 
G01 X-62.8559 Y42.4625 
G01 X-62.8979 Y42.4799 
G01 X-62.9301 Y42.5121 
G01 X-62.9475 Y42.5541 
G00 Z2.5400 
G00 X-5.8410 Y14.2342 
G01 Z-0.1778 F254.00 
G01 X-5.6873 Y14.3458 F508.00 
G01 X-5.5181 Y14.4320 
G01 X-5.3375 Y14.4907 
G01 X-5.1500 Y14.5204 
G01 X-4.9600 Y14.5204 
G01 X-4.7725 Y14.4907 
G01 X-4.5919 Y14.4320 
G01 X-4.4227 Y14.3458 
G01 X-4.2690 Y14.2342 
G01 X-4.1347 Y14.0999 
G01 X-4.0231 Y13.9462 
G01 X-3.9369 Y13.7770 
G01 X-3.8782 Y13.5964 
G01 X-3.8485 Y13.4089 
G01 X-3.8485 Y13.2189 
G01 X-3.8782 Y13.0314 
G01 X-3.9369 Y12.8508 
G01 X-4.0231 Y12.6816 
G01 X-4.1347 Y12.5279 
G01 X-14.2736 Y2.3890 
G01 X-14.4079 Y2.2547 
G01 X-14.5616 Y2.1431 
G01 X-14.7308 Y2.0569 
G01 X-14.9114 Y1.9982 
G01 X-15.0989 Y1.9685 
G01 X-20.4150 Y1.9685 
G01 X-20.6025 Y1.9982 
G01 X-20.7831 Y2.0569 
G01 X-20.9523 Y2.1431 
G01 X-21.1060 Y2.2547 
G01 X-21.2403 Y2.3890 
G01 X-21.3519 Y2.5427 
G01 X-21.4381 Y2.7119 
G01 X-21.4968 Y2.8925 
G01 X-21.5265 Y3.0800 
G01 X-21.5265 Y3.2700 
G01 X-21.4968 Y3.4575 
G01 X-21.4381 Y3.6381 
G01 X-21.3519 Y3.8073 
G01 X-21.2403 Y3.9610 
G01 X-21.1060 Y4.0953 
G01 X-20.9523 Y4.2069 
G01 X-20.7831 Y4.2931 
G01 X-20.6025 Y4.3518 
G01 X-20.4150 Y4.3815 
G01 X-15.6936 Y4.3815 
G01 X-5.8410 Y14.2342 
G00 Z2.5400 
G00 X-77.0473 Y29.7084 
G01 Z-0.1778 F254.00 
G01 X-76.9661 Y29.6866 F508.00 
G01 X-76.8822 Y29.6381 
G01 X-76.8136 Y29.5695 
G01 X-76.7651 Y29.4856 
G01 X-76.7400 Y29.3919 
G01 X-76.7400 Y29.2986 
G01 X-76.6445 Y29.3941 
G01 X-76.6445 Y30.1112 
G01 X-77.0473 Y29.7084 
G00 Z2.5400 
G00 X-77.1202 Y32.1755 
G01 Z-0.1778 F254.00 
G01 X-77.8198 Y32.1755 F508.00 
G01 X-78.1407 Y32.4964 
G01 X-78.1407 Y32.4757 
G01 X-78.1375 Y32.4516 
G01 X-78.1407 Y32.4275 
G01 X-78.1407 Y32.4031 
G01 X-78.1470 Y32.3796 
G01 X-78.1502 Y32.3555 
G01 X-78.1595 Y32.3330 
G01 X-78.1658 Y32.3094 
G01 X-78.1780 Y32.2884 
G01 X-78.1873 Y32.2659 
G01 X-78.2021 Y32.2465 
G01 X-78.2143 Y32.2255 
G01 X-78.2315 Y32.2082 
G01 X-78.2463 Y32.1889 
G01 X-78.2656 Y32.1741 
G01 X-78.2828 Y32.1569 
G01 X-78.3039 Y32.1447 
G01 X-78.3233 Y32.1299 
G01 X-78.3457 Y32.1206 
G01 X-78.3668 Y32.1084 
G01 X-78.3904 Y32.1021 
G01 X-78.4128 Y32.0928 
G01 X-78.4370 Y32.0896 
G01 X-78.4480 Y32.0866 
G01 X-77.6859 Y31.3245 
G01 X-77.1202 Y31.3245 
G01 X-76.6445 Y30.8488 
G01 X-76.6445 Y32.6512 
G01 X-77.1202 Y32.1755 
G00 Z2.5400 
G00 X-76.6255 Y35.9098 
G01 Z-0.1778 F254.00 
G01 X-76.6255 Y35.2102 F508.00 
G01 X-77.1012 Y34.7345 
G01 X-76.1415 Y34.7345 
G01 X-76.0284 Y34.7042 
G01 X-75.9271 Y34.6457 
G01 X-75.8443 Y34.5629 
G01 X-75.7858 Y34.4616 
G01 X-75.7555 Y34.3485 
G01 X-75.7555 Y29.1515 
G01 X-75.7822 Y29.0520 
G01 X-75.7151 Y29.0700 
G01 X-75.6181 Y29.0700 
G01 X-75.5794 Y29.0596 
G01 X-75.5244 Y29.0449 
G01 X-75.4611 Y29.0083 
G01 X-75.4405 Y28.9964 
G01 X-75.3745 Y28.9304 
G01 X-75.3745 Y35.3759 
G01 X-76.3841 Y36.3855 
G01 X-77.1012 Y36.3855 
G01 X-76.6255 Y35.9098 
G00 Z2.5400 
G00 X-78.1757 Y35.0714 
G01 Z-0.1778 F254.00 
G01 X-78.1757 Y34.9781 F508.00 
G01 X-78.1845 Y34.9454 
G01 X-78.2008 Y34.8844 
G01 X-78.2493 Y34.8005 
G01 X-78.2830 Y34.7667 
G01 X-78.3152 Y34.7345 
G01 X-77.8388 Y34.7345 
G01 X-78.1757 Y35.0714 
G00 Z2.5400 
G00 X-78.2841 Y33.8144 
G01 Z-0.1778 F254.00 
G01 X-78.2493 Y33.7795 F508.00 
G01 X-78.2493 Y33.7795 
G01 X-78.2008 Y33.6956 
G01 X-78.1847 Y33.6356 
G01 X-78.1757 Y33.6019 
G01 X-78.1757 Y33.5086 
G01 X-77.8388 Y33.8455 
G01 X-78.3152 Y33.8455 
G01 X-78.2841 Y33.8144 
G00 Z2.5400 
G00 X-76.6445 Y33.3888 
G01 Z-0.1778 F254.00 
G01 X-76.6445 Y33.8455 F508.00 
G01 X-77.1012 Y33.8455 
G01 X-76.6445 Y33.3888 
G00 Z2.5400 
G00 X-78.2841 Y36.3544 
G01 Z-0.1778 F254.00 
G01 X-78.2493 Y36.3195 F508.00 
G01 X-78.2493 Y36.3195 
G01 X-78.2008 Y36.2356 
G01 X-78.1847 Y36.1756 
G01 X-78.1757 Y36.1419 
G01 X-78.1757 Y36.0486 
G01 X-77.8388 Y36.3855 
G01 X-78.3152 Y36.3855 
G01 X-78.2841 Y36.3544 
G00 Z2.5400 
G00 X-78.1757 Y37.6114 
G01 Z-0.1778 F254.00 
G01 X-78.1757 Y37.5181 F508.00 
G01 X-78.1845 Y37.4854 
G01 X-78.2008 Y37.4244 
G01 X-78.2493 Y37.3405 
G01 X-78.2830 Y37.3067 
G01 X-78.3152 Y37.2745 
G01 X-77.8388 Y37.2745 
G01 X-78.1757 Y37.6114 
G00 Z2.5400 
G00 X-76.6559 Y37.3056 
G01 Z-0.1778 F254.00 
G01 X-76.6907 Y37.3405 F508.00 
G01 X-76.6907 Y37.3405 
G01 X-76.7392 Y37.4244 
G01 X-76.7553 Y37.4844 
G01 X-76.7643 Y37.5181 
G01 X-76.7643 Y37.6114 
G01 X-77.1012 Y37.2745 
G01 X-76.6248 Y37.2745 
G01 X-76.6559 Y37.3056 
G00 Z2.5400 
G00 X-75.9864 Y24.6405 
G01 Z-0.1778 F254.00 
G01 X-76.0343 Y24.7234 F508.00 
G01 X-76.0349 Y24.7244 
G01 X-76.0600 Y24.8181 
G01 X-76.0600 Y24.9151 
G01 X-76.0420 Y24.9822 
G01 X-76.1415 Y24.9555 
G01 X-76.7202 Y24.9555 
G01 X-77.1012 Y24.5745 
G01 X-75.9204 Y24.5745 
G01 X-75.9864 Y24.6405 
G00 Z2.5400 
G00 X-78.2416 Y24.9773 
G01 Z-0.1778 F254.00 
G01 X-78.2634 Y24.8961 F508.00 
G01 X-78.3108 Y24.8140 
G01 X-78.3805 Y24.7436 
G01 X-78.4619 Y24.6966 
G01 X-78.5581 Y24.6700 
G01 X-78.6514 Y24.6700 
G01 X-78.5559 Y24.5745 
G01 X-77.8388 Y24.5745 
G01 X-78.2416 Y24.9773 
G00 Z2.5400 
G00 X-78.2841 Y23.6544 
G01 Z-0.1778 F254.00 
G01 X-78.2493 Y23.6195 F508.00 
G01 X-78.2493 Y23.6195 
G01 X-78.2008 Y23.5356 
G01 X-78.1847 Y23.4756 
G01 X-78.1757 Y23.4419 
G01 X-78.1757 Y23.3486 
G01 X-77.8388 Y23.6855 
G01 X-78.3152 Y23.6855 
G01 X-78.2841 Y23.6544 
G00 Z2.5400 
G00 X-76.7643 Y23.3486 
G01 Z-0.1778 F254.00 
G01 X-76.7643 Y23.4419 F508.00 
G01 X-76.7555 Y23.4746 
G01 X-76.7392 Y23.5356 
G01 X-76.6907 Y23.6195 
G01 X-76.6570 Y23.6533 
G01 X-76.6248 Y23.6855 
G01 X-77.1012 Y23.6855 
G01 X-76.7643 Y23.3486 
G00 Z2.5400 
G00 X-69.0559 Y11.1265 
G01 Z-0.1778 F254.00 
G01 X-69.0905 Y11.0920 F508.00 
G01 X-69.0905 Y11.0920 
G01 X-69.1406 Y11.0630 
G01 X-69.1744 Y11.0435 
G01 X-69.2197 Y11.0314 
G01 X-69.2681 Y11.0184 
G01 X-69.3161 Y11.0184 
G01 X-69.3614 Y11.0184 
G01 X-69.0245 Y10.6815 
G01 X-69.0245 Y11.1580 
G01 X-69.0559 Y11.1265 
G00 Z2.5400 
G00 X-66.5159 Y11.1265 
G01 Z-0.1778 F254.00 
G01 X-66.5505 Y11.0920 F508.00 
G01 X-66.5505 Y11.0920 
G01 X-66.6006 Y11.0630 
G01 X-66.6344 Y11.0435 
G01 X-66.6797 Y11.0314 
G01 X-66.7281 Y11.0184 
G01 X-66.7761 Y11.0184 
G01 X-66.8214 Y11.0184 
G01 X-66.4845 Y10.6815 
G01 X-66.4845 Y11.1580 
G01 X-66.5159 Y11.1265 
G00 Z2.5400 
G00 X-65.2586 Y11.0184 
G01 Z-0.1778 F254.00 
G01 X-65.3028 Y11.0184 F508.00 
G01 X-65.3519 Y11.0184 
G01 X-65.3997 Y11.0312 
G01 X-65.4455 Y11.0435 
G01 X-65.4787 Y11.0626 
G01 X-65.5295 Y11.0920 
G01 X-65.5635 Y11.1260 
G01 X-65.5955 Y11.1580 
G01 X-65.5955 Y10.6815 
G01 X-65.2586 Y11.0184 
G00 Z2.5400 
G00 X-65.5641 Y9.1935 
G01 Z-0.1778 F254.00 
G01 X-65.5295 Y9.2280 F508.00 
G01 X-65.5295 Y9.2280 
G01 X-65.4794 Y9.2569 
G01 X-65.4456 Y9.2765 
G01 X-65.4003 Y9.2886 
G01 X-65.3519 Y9.3016 
G01 X-65.3039 Y9.3016 
G01 X-65.2586 Y9.3016 
G01 X-65.5955 Y9.6385 
G01 X-65.5955 Y9.1620 
G01 X-65.5641 Y9.1935 
G00 Z2.5400 
G00 X-68.5061 Y8.2420 
G01 Z-0.1778 F254.00 
G01 X-68.5061 Y8.2420 F508.00 
G01 X-68.4623 Y8.2303 
G01 X-68.4124 Y8.2169 
G01 X-68.3285 Y8.1684 
G01 X-68.2599 Y8.0998 
G01 X-68.2520 Y8.0863 
G01 X-68.2296 Y8.0474 
G01 X-67.7045 Y8.5725 
G01 X-66.9861 Y8.5725 
G01 X-66.4845 Y9.0741 
G01 X-66.4845 Y9.6385 
G01 X-66.9155 Y9.2075 
G01 X-67.7045 Y9.2075 
G01 X-68.1355 Y9.6385 
G01 X-68.1355 Y8.8315 
G01 X-68.1658 Y8.7184 
G01 X-68.2243 Y8.6171 
G01 X-68.5994 Y8.2420 
G01 X-68.5061 Y8.2420 
G00 Z2.5400 
G00 X-65.9661 Y8.2420 
G01 Z-0.1778 F254.00 
G01 X-65.9661 Y8.2420 F508.00 
G01 X-65.9223 Y8.2303 
G01 X-65.8724 Y8.2169 
G01 X-65.7885 Y8.1684 
G01 X-65.7199 Y8.0998 
G01 X-65.7120 Y8.0863 
G01 X-65.6896 Y8.0474 
G01 X-65.2586 Y8.4784 
G01 X-65.3028 Y8.4784 
G01 X-65.3519 Y8.4784 
G01 X-65.3997 Y8.4912 
G01 X-65.4455 Y8.5035 
G01 X-65.4787 Y8.5226 
G01 X-65.5295 Y8.5520 
G01 X-65.5635 Y8.5860 
G01 X-65.5981 Y8.6206 
G01 X-65.6191 Y8.6570 
G01 X-65.6402 Y8.6935 
G01 X-65.6843 Y8.6171 
G01 X-65.7671 Y8.5343 
G01 X-66.0594 Y8.2420 
G01 X-65.9661 Y8.2420 
G00 Z2.5400 
G00 X-69.4226 Y9.2404 
G01 Z-0.1778 F254.00 
G01 X-69.3851 Y9.2187 F508.00 
G01 X-69.3702 Y9.2101 
G01 X-69.3026 Y9.1426 
G01 X-69.2531 Y9.0575 
G01 X-69.2400 Y9.0086 
G01 X-69.2280 Y8.9639 
G01 X-69.2280 Y8.8706 
G01 X-69.0245 Y9.0741 
G01 X-69.0245 Y9.6385 
G01 X-69.4226 Y9.2404 
G00 Z2.5400 
G00 X-67.7986 Y11.0184 
G01 Z-0.1778 F254.00 
G01 X-67.8428 Y11.0184 F508.00 
G01 X-67.8919 Y11.0184 
G01 X-67.9397 Y11.0312 
G01 X-67.9855 Y11.0435 
G01 X-68.0187 Y11.0626 
G01 X-68.0695 Y11.0920 
G01 X-68.1035 Y11.1260 
G01 X-68.1355 Y11.1580 
G01 X-68.1355 Y10.6815 
G01 X-67.7986 Y11.0184 
G00 Z2.5400 
G00 X-76.6445 Y19.9512 
G01 Z-0.1778 F254.00 
G01 X-76.9814 Y19.6143 F508.00 
G01 X-76.8881 Y19.6143 
G01 X-76.8554 Y19.6055 
G01 X-76.7944 Y19.5892 
G01 X-76.7105 Y19.5407 
G01 X-76.6767 Y19.5070 
G01 X-76.6445 Y19.4748 
G01 X-76.6445 Y19.9512 
G00 Z2.5400 
G00 X-76.6445 Y20.6888 
G01 Z-0.1778 F254.00 
G01 X-76.6445 Y21.4059 F508.00 
G01 X-76.7400 Y21.5014 
G01 X-76.7400 Y21.4081 
G01 X-76.7451 Y21.3892 
G01 X-76.7651 Y21.3144 
G01 X-76.8136 Y21.2305 
G01 X-76.8822 Y21.1619 
G01 X-76.9661 Y21.1134 
G01 X-77.0473 Y21.0916 
G01 X-76.6445 Y20.6888 
G00 Z2.5400 
G00 X-74.2067 Y9.5363 
G01 Z-0.1778 F254.00 
G01 X-74.1705 Y9.5154 F508.00 
G01 X-74.1045 Y9.4494 
G01 X-74.1045 Y9.6385 
G01 X-74.2067 Y9.5363 
G00 Z2.5400 
G00 X-73.0120 Y8.9639 
G01 Z-0.1778 F254.00 
G01 X-73.0120 Y8.9639 F508.00 
G01 X-73.0003 Y9.0077 
G01 X-72.9869 Y9.0575 
G01 X-72.9384 Y9.1415 
G01 X-72.8698 Y9.2101 
G01 X-72.8563 Y9.2180 
G01 X-72.8174 Y9.2404 
G01 X-73.2155 Y9.6385 
G01 X-73.2155 Y9.0741 
G01 X-73.0120 Y8.8706 
G01 X-73.0120 Y8.9639 
G00 Z2.5400 
G00 X-72.7845 Y11.1125 
G01 Z-0.1778 F254.00 
G01 X-72.7011 Y11.1125 F508.00 
G01 X-73.9329 Y12.3443 
G01 X-74.0157 Y12.4271 
G01 X-74.0742 Y12.5284 
G01 X-74.1045 Y12.6415 
G01 X-74.1045 Y16.3259 
G01 X-76.4729 Y18.6943 
G01 X-76.5366 Y18.7580 
G01 X-76.5396 Y18.7470 
G01 X-76.5428 Y18.7228 
G01 X-76.5521 Y18.7004 
G01 X-76.5584 Y18.6768 
G01 X-76.5706 Y18.6557 
G01 X-76.5799 Y18.6333 
G01 X-76.5947 Y18.6139 
G01 X-76.6069 Y18.5928 
G01 X-76.6241 Y18.5756 
G01 X-76.6389 Y18.5563 
G01 X-76.6582 Y18.5415 
G01 X-76.6755 Y18.5243 
G01 X-76.6965 Y18.5121 
G01 X-76.7159 Y18.4973 
G01 X-76.7384 Y18.4880 
G01 X-76.7594 Y18.4758 
G01 X-76.7830 Y18.4695 
G01 X-76.8055 Y18.4602 
G01 X-76.8296 Y18.4570 
G01 X-76.8531 Y18.4507 
G01 X-76.8775 Y18.4507 
G01 X-76.9016 Y18.4475 
G01 X-76.9257 Y18.4507 
G01 X-76.9464 Y18.4507 
G01 X-76.7202 Y18.2245 
G01 X-76.1415 Y18.2245 
G01 X-76.0284 Y18.1942 
G01 X-75.9271 Y18.1357 
G01 X-74.6571 Y16.8657 
G01 X-74.5743 Y16.7829 
G01 X-74.5158 Y16.6816 
G01 X-74.4855 Y16.5685 
G01 X-74.4855 Y12.8841 
G01 X-73.3871 Y11.7857 
G01 X-73.3043 Y11.7029 
G01 X-73.2458 Y11.6016 
G01 X-73.2155 Y11.4885 
G01 X-73.2155 Y10.6815 
G01 X-72.7845 Y11.1125 
G00 Z2.5400 
G00 X-74.1705 Y10.8046 
G01 Z-0.1778 F254.00 
G01 X-74.1705 Y10.8046 F508.00 
G01 X-74.2067 Y10.7837 
G01 X-74.1045 Y10.6815 
G01 X-74.1045 Y10.8706 
G01 X-74.1705 Y10.8046 
G00 Z2.5400 
G00 X-61.5000 Y31.5681 
G01 Z-0.1778 F254.00 
G01 X-61.5000 Y31.5681 F508.00 
G01 X-61.5051 Y31.5492 
G01 X-61.5251 Y31.4744 
G01 X-61.5736 Y31.3905 
G01 X-61.6422 Y31.3219 
G01 X-61.7261 Y31.2734 
G01 X-61.8073 Y31.2516 
G01 X-61.4584 Y30.9027 
G01 X-61.4467 Y30.9461 
G01 X-61.4366 Y30.9839 
G01 X-61.4039 Y31.0404 
G01 X-61.3881 Y31.0678 
G01 X-61.3543 Y31.1016 
G01 X-61.3195 Y31.1364 
G01 X-61.2355 Y31.1849 
G01 X-61.1674 Y31.2031 
G01 X-61.1419 Y31.2100 
G01 X-61.0939 Y31.2100 
G01 X-61.0486 Y31.2100 
G01 X-61.5000 Y31.6614 
G01 X-61.5000 Y31.5681 
G00 Z2.5400 
G00 X-61.3855 Y43.6878 
G01 Z-0.1778 F254.00 
G01 X-61.3855 Y43.6245 F508.00 
G01 X-61.3222 Y43.6245 
G01 X-61.3855 Y43.6878 
G00 Z2.5400 
G00 X-61.3855 Y42.6721 
G01 Z-0.1778 F254.00 
G01 X-61.3221 Y42.7355 F508.00 
G01 X-61.3855 Y42.7355 
G01 X-61.3855 Y42.6721 
G00 Z2.5400 
G00 X-95.1333 Y2.6287 
G01 Z-0.1778 F254.00 
G01 X-95.1333 Y3.3713 F508.00 
G01 X-95.4175 Y4.0574 
G01 X-95.9426 Y4.5825 
G01 X-96.6287 Y4.8667 
G01 X-97.3713 Y4.8667 
G01 X-98.0574 Y4.5825 
G01 X-98.5825 Y4.0574 
G01 X-98.8667 Y3.3713 
G01 X-98.8667 Y2.6287 
G01 X-98.5825 Y1.9426 
G01 X-98.0574 Y1.4175 
G01 X-97.3713 Y1.1333 
G01 X-96.6287 Y1.1333 
G01 X-95.9426 Y1.4175 
G01 X-95.4175 Y1.9426 
G01 X-95.1333 Y2.6287 
G00 Z2.5400 
G00 X-97.3713 Y45.1333 
G01 Z-0.1778 F254.00 
G01 X-96.6287 Y45.1333 F508.00 
G01 X-95.9426 Y45.4175 
G01 X-95.4175 Y45.9426 
G01 X-95.1333 Y46.6287 
G01 X-95.1333 Y47.3713 
G01 X-95.4175 Y48.0574 
G01 X-95.9426 Y48.5825 
G01 X-96.6287 Y48.8667 
G01 X-97.3713 Y48.8667 
G01 X-98.0574 Y48.5825 
G01 X-98.5825 Y48.0574 
G01 X-98.8667 Y47.3713 
G01 X-98.8667 Y46.6287 
G01 X-98.5825 Y45.9426 
G01 X-98.0574 Y45.4175 
G01 X-97.3713 Y45.1333 
G00 Z2.5400 
G00 X-71.3041 Y10.9855 
G01 Z-0.1778 F254.00 
G01 X-71.8685 Y10.9855 F508.00 
G01 X-71.4704 Y10.5874 
G01 X-71.4401 Y10.6398 
G01 X-71.3715 Y10.7084 
G01 X-71.2875 Y10.7569 
G01 X-71.2217 Y10.7745 
G01 X-71.1939 Y10.7820 
G01 X-71.1006 Y10.7820 
G01 X-71.3041 Y10.9855 
G00 Z2.5400 
G00 X-29.2813 Y14.6844 
G01 Z-0.1778 F254.00 
G01 X-29.2813 Y15.7956 F508.00 
G01 X-28.4956 Y16.5813 
G01 X-27.3844 Y16.5813 
G01 X-27.3766 Y16.5735 
G01 X-22.7550 Y16.5735 
G01 X-22.5477 Y16.5407 
G01 X-22.3481 Y16.4758 
G01 X-22.1611 Y16.3805 
G01 X-21.9913 Y16.2571 
G01 X-21.8429 Y16.1087 
G01 X-19.7676 Y14.0335 
G01 X-14.5224 Y14.0335 
G01 X-9.1448 Y19.4110 
G01 X-8.9750 Y19.5344 
G01 X-8.7880 Y19.6297 
G01 X-8.5884 Y19.6946 
G01 X-8.3811 Y19.7274 
G01 X-4.9500 Y19.7274 
G01 X-4.7427 Y19.6946 
G01 X-4.5431 Y19.6297 
G01 X-4.3561 Y19.5344 
G01 X-4.1863 Y19.4110 
G01 X-4.0379 Y19.2626 
G01 X-3.9145 Y19.0928 
G01 X-3.8192 Y18.9058 
G01 X-3.7543 Y18.7062 
G01 X-3.7215 Y18.4989 
G01 X-3.7215 Y18.2889 
G01 X-3.7543 Y18.0816 
G01 X-3.8192 Y17.8820 
G01 X-3.9145 Y17.6950 
G01 X-4.0379 Y17.5252 
G01 X-4.1863 Y17.3768 
G01 X-4.3561 Y17.2534 
G01 X-4.5431 Y17.1581 
G01 X-4.7427 Y17.0932 
G01 X-4.9500 Y17.0604 
G01 X-7.7237 Y17.0604 
G01 X-12.9529 Y11.8313 
G01 X-13.1013 Y11.6829 
G01 X-13.2711 Y11.5595 
G01 X-13.4581 Y11.4642 
G01 X-13.6577 Y11.3993 
G01 X-13.8650 Y11.3665 
G01 X-20.4250 Y11.3665 
G01 X-20.6323 Y11.3993 
G01 X-20.8319 Y11.4642 
G01 X-21.0189 Y11.5595 
G01 X-21.1887 Y11.6829 
G01 X-23.4124 Y13.9065 
G01 X-27.3766 Y13.9065 
G01 X-27.3844 Y13.8987 
G01 X-28.4956 Y13.8987 
G01 X-29.2813 Y14.6844 
G00 Z2.5400 
G00 X-34.3613 Y14.6844 
G01 Z-0.1778 F254.00 
G01 X-34.3613 Y15.7956 F508.00 
G01 X-34.3535 Y15.8034 
G01 X-34.3535 Y33.7266 
G01 X-34.3613 Y33.7344 
G01 X-34.3613 Y34.8456 
G01 X-33.7693 Y35.4376 
G01 X-33.7693 Y43.5853 
G01 X-34.1613 Y43.9773 
G01 X-34.1613 Y44.9227 
G01 X-33.4927 Y45.5913 
G01 X-32.5473 Y45.5913 
G01 X-31.8787 Y44.9227 
G01 X-31.8787 Y43.9773 
G01 X-32.2707 Y43.5853 
G01 X-32.2707 Y35.4376 
G01 X-31.6787 Y34.8456 
G01 X-31.6787 Y33.7344 
G01 X-31.6865 Y33.7266 
G01 X-31.6865 Y24.1724 
G01 X-23.3978 Y24.1724 
G01 X-21.3404 Y26.2642 
G01 X-21.3371 Y26.2687 
G01 X-21.2669 Y26.3390 
G01 X-21.1971 Y26.4099 
G01 X-21.1927 Y26.4132 
G01 X-21.1887 Y26.4171 
G01 X-21.1082 Y26.4757 
G01 X-21.0284 Y26.5347 
G01 X-21.0234 Y26.5372 
G01 X-21.0189 Y26.5405 
G01 X-20.9303 Y26.5857 
G01 X-20.8421 Y26.6315 
G01 X-20.8368 Y26.6333 
G01 X-20.8319 Y26.6358 
G01 X-20.7373 Y26.6665 
G01 X-20.6431 Y26.6980 
G01 X-20.6376 Y26.6989 
G01 X-20.6323 Y26.7007 
G01 X-20.5339 Y26.7162 
G01 X-20.4360 Y26.7326 
G01 X-20.4305 Y26.7326 
G01 X-20.4250 Y26.7335 
G01 X-20.3254 Y26.7335 
G01 X-20.2261 Y26.7343 
G01 X-20.2206 Y26.7335 
G01 X-15.1350 Y26.7335 
G01 X-14.9277 Y26.7007 
G01 X-14.7281 Y26.6358 
G01 X-14.5411 Y26.5405 
G01 X-14.3713 Y26.4171 
G01 X-14.2229 Y26.2687 
G01 X-12.7615 Y24.8074 
G01 X-4.9500 Y24.8074 
G01 X-4.7427 Y24.7746 
G01 X-4.5431 Y24.7097 
G01 X-4.3561 Y24.6144 
G01 X-4.1863 Y24.4910 
G01 X-4.0379 Y24.3426 
G01 X-3.9145 Y24.1728 
G01 X-3.8192 Y23.9858 
G01 X-3.7543 Y23.7862 
G01 X-3.7215 Y23.5789 
G01 X-3.7215 Y23.3689 
G01 X-3.7543 Y23.1616 
G01 X-3.8192 Y22.9620 
G01 X-3.9145 Y22.7750 
G01 X-4.0379 Y22.6052 
G01 X-4.1863 Y22.4568 
G01 X-4.3561 Y22.3334 
G01 X-4.5431 Y22.2381 
G01 X-4.7427 Y22.1732 
G01 X-4.9500 Y22.1404 
G01 X-13.4189 Y22.1404 
G01 X-13.6262 Y22.1732 
G01 X-13.8258 Y22.2381 
G01 X-14.0128 Y22.3334 
G01 X-14.1826 Y22.4568 
G01 X-15.7924 Y24.0665 
G01 X-19.7611 Y24.0665 
G01 X-21.8185 Y21.9747 
G01 X-21.8218 Y21.9702 
G01 X-21.8920 Y21.8999 
G01 X-21.9618 Y21.8290 
G01 X-21.9662 Y21.8257 
G01 X-21.9702 Y21.8218 
G01 X-22.0507 Y21.7632 
G01 X-22.1305 Y21.7042 
G01 X-22.1355 Y21.7017 
G01 X-22.1400 Y21.6984 
G01 X-22.2286 Y21.6532 
G01 X-22.3168 Y21.6074 
G01 X-22.3221 Y21.6056 
G01 X-22.3270 Y21.6031 
G01 X-22.4216 Y21.5724 
G01 X-22.5158 Y21.5409 
G01 X-22.5213 Y21.5400 
G01 X-22.5266 Y21.5382 
G01 X-22.6250 Y21.5227 
G01 X-22.7229 Y21.5063 
G01 X-22.7284 Y21.5063 
G01 X-22.7339 Y21.5054 
G01 X-22.8335 Y21.5054 
G01 X-22.9328 Y21.5046 
G01 X-22.9383 Y21.5054 
G01 X-31.6865 Y21.5054 
G01 X-31.6865 Y15.8034 
G01 X-31.6787 Y15.7956 
G01 X-31.6787 Y14.6844 
G01 X-32.4644 Y13.8987 
G01 X-33.5756 Y13.8987 
G01 X-34.3613 Y14.6844 
G00 Z2.5400 
G00 X-41.7195 Y14.7929 
G01 Z-0.1778 F254.00 
G01 X-41.7195 Y15.6871 F508.00 
G01 X-41.0871 Y16.3195 
G01 X-40.1929 Y16.3195 
G01 X-39.5605 Y15.6871 
G01 X-39.5605 Y14.7929 
G01 X-40.1929 Y14.1605 
G01 X-41.0871 Y14.1605 
G01 X-41.7195 Y14.7929 
G00 Z2.5400 
G00 X-41.7195 Y33.8429 
G01 Z-0.1778 F254.00 
G01 X-41.7195 Y34.7371 F508.00 
G01 X-41.0871 Y35.3695 
G01 X-40.1929 Y35.3695 
G01 X-39.5605 Y34.7371 
G01 X-39.5605 Y33.8429 
G01 X-40.1929 Y33.2105 
G01 X-41.0871 Y33.2105 
G01 X-41.7195 Y33.8429 
G00 Z2.5400 
G00 X-44.2595 Y33.8429 
G01 Z-0.1778 F254.00 
G01 X-44.2595 Y33.8455 F508.00 
G01 X-56.5735 Y33.8455 
G01 X-56.6866 Y33.8758 
G01 X-56.7879 Y33.9343 
G01 X-58.0579 Y35.2043 
G01 X-58.1407 Y35.2871 
G01 X-58.1992 Y35.3884 
G01 X-58.2295 Y35.5015 
G01 X-58.2295 Y39.6496 
G01 X-58.2955 Y39.5836 
G01 X-58.3784 Y39.5357 
G01 X-58.4731 Y39.5100 
G01 X-58.5701 Y39.5100 
G01 X-58.6372 Y39.5280 
G01 X-58.6105 Y39.4285 
G01 X-58.6105 Y16.6941 
G01 X-57.6009 Y15.6845 
G01 X-44.2595 Y15.6845 
G01 X-44.2595 Y15.6871 
G01 X-43.6271 Y16.3195 
G01 X-42.7329 Y16.3195 
G01 X-42.1005 Y15.6871 
G01 X-42.1005 Y14.7929 
G01 X-42.7329 Y14.1605 
G01 X-43.6271 Y14.1605 
G01 X-44.2595 Y14.7929 
G01 X-44.2595 Y14.7955 
G01 X-57.8435 Y14.7955 
G01 X-57.9566 Y14.8258 
G01 X-58.0579 Y14.8843 
G01 X-59.3279 Y16.1543 
G01 X-59.4107 Y16.2371 
G01 X-59.4692 Y16.3384 
G01 X-59.4995 Y16.4515 
G01 X-59.4995 Y31.3946 
G01 X-59.5655 Y31.3286 
G01 X-59.6484 Y31.2807 
G01 X-59.7431 Y31.2550 
G01 X-59.8401 Y31.2550 
G01 X-59.9072 Y31.2730 
G01 X-59.8805 Y31.1735 
G01 X-59.8805 Y10.3887 
G01 X-59.8145 Y10.4547 
G01 X-59.7306 Y10.5032 
G01 X-59.6369 Y10.5283 
G01 X-40.5915 Y10.5283 
G01 X-40.4978 Y10.5032 
G01 X-40.4139 Y10.4547 
G01 X-40.3453 Y10.3861 
G01 X-37.8053 Y7.8461 
G01 X-37.7568 Y7.7622 
G01 X-37.7317 Y7.6685 
G01 X-37.7317 Y0.5865 
G01 X-37.7568 Y0.4928 
G01 X-37.8053 Y0.4089 
G01 X-37.8739 Y0.3403 
G01 X-37.9578 Y0.2918 
G01 X-38.0515 Y0.2667 
G01 X-99.4135 Y0.2667 
G01 X-99.5072 Y0.2918 
G01 X-99.5911 Y0.3403 
G01 X-99.6597 Y0.4089 
G01 X-99.7082 Y0.4928 
G01 X-99.7333 Y0.5865 
G01 X-99.7333 Y49.4135 
G01 X-99.7082 Y49.5072 
G01 X-99.6597 Y49.5911 
G01 X-99.5911 Y49.6597 
G01 X-99.5072 Y49.7082 
G01 X-99.4135 Y49.7333 
G01 X-58.3715 Y49.7333 
G01 X-58.2778 Y49.7082 
G01 X-58.1939 Y49.6597 
G01 X-58.1253 Y49.5911 
G01 X-58.0768 Y49.5072 
G01 X-58.0517 Y49.4135 
G01 X-58.0517 Y43.6352 
G01 X-58.0517 Y43.5869 
G01 X-58.0517 Y43.5382 
G01 X-58.0677 Y43.4786 
G01 X-58.0768 Y43.4445 
G01 X-58.1090 Y43.3888 
G01 X-58.1253 Y43.3606 
G01 X-58.1644 Y43.3215 
G01 X-58.1939 Y43.2920 
G01 X-58.2412 Y43.2646 
G01 X-58.2778 Y43.2435 
G01 X-58.3236 Y43.2312 
G01 X-58.3715 Y43.2184 
G01 X-58.4198 Y43.2184 
G01 X-58.4648 Y43.2184 
G01 X-57.4293 Y42.1829 
G01 X-57.3708 Y42.0816 
G01 X-57.3405 Y41.9685 
G01 X-57.3405 Y35.7441 
G01 X-56.3309 Y34.7345 
G01 X-44.2595 Y34.7345 
G01 X-44.2595 Y34.7371 
G01 X-43.6271 Y35.3695 
G01 X-42.7329 Y35.3695 
G01 X-42.1005 Y34.7371 
G01 X-42.1005 Y33.8429 
G01 X-42.7329 Y33.2105 
G01 X-43.6271 Y33.2105 
G01 X-44.2595 Y33.8429 
G00 Z2.5400 
G00 X-31.7170 Y6.7691 
G01 Z-0.1778 F254.00 
G01 X-33.1038 Y6.7691 F508.00 
G01 X-33.2682 Y6.8018 
G01 X-33.4231 Y6.8659 
G01 X-33.5624 Y6.9591 
G01 X-33.6809 Y7.0776 
G01 X-33.7741 Y7.2169 
G01 X-33.8382 Y7.3718 
G01 X-33.8709 Y7.5362 
G01 X-33.8709 Y7.7038 
G01 X-33.8382 Y7.8682 
G01 X-33.7741 Y8.0230 
G01 X-33.6809 Y8.1624 
G01 X-33.5624 Y8.2809 
G01 X-33.4231 Y8.3741 
G01 X-33.2682 Y8.4382 
G01 X-33.1038 Y8.4709 
G01 X-31.7170 Y8.4709 
G01 X-31.5526 Y8.4382 
G01 X-31.3977 Y8.3741 
G01 X-31.3906 Y8.3693 
G01 X-29.6640 Y8.3693 
G01 X-29.5625 Y8.4709 
G01 X-28.8575 Y8.4709 
G01 X-28.7560 Y8.3693 
G01 X-25.9612 Y8.3693 
G01 X-25.8164 Y8.3405 
G01 X-25.6801 Y8.2840 
G01 X-25.5573 Y8.2020 
G01 X-25.4816 Y8.1263 
G01 X-24.9273 Y8.1263 
G01 X-24.2587 Y7.4577 
G01 X-24.2587 Y6.5123 
G01 X-24.9273 Y5.8437 
G01 X-25.8727 Y5.8437 
G01 X-26.5413 Y6.5123 
G01 X-26.5413 Y6.8707 
G01 X-28.7560 Y6.8707 
G01 X-28.8575 Y6.7691 
G01 X-29.5625 Y6.7691 
G01 X-29.6640 Y6.8707 
G01 X-31.3906 Y6.8707 
G01 X-31.3977 Y6.8659 
G01 X-31.5526 Y6.8018 
G01 X-31.7170 Y6.7691 
G00 Z2.5400 
G00 X-31.7170 Y1.6891 
G01 Z-0.1778 F254.00 
G01 X-33.1038 Y1.6891 F508.00 
G01 X-33.2682 Y1.7218 
G01 X-33.4231 Y1.7859 
G01 X-33.5624 Y1.8791 
G01 X-33.6809 Y1.9976 
G01 X-33.7741 Y2.1369 
G01 X-33.8382 Y2.2918 
G01 X-33.8709 Y2.4562 
G01 X-33.8709 Y2.6238 
G01 X-33.8382 Y2.7882 
G01 X-33.7741 Y2.9430 
G01 X-33.6809 Y3.0824 
G01 X-33.5624 Y3.2009 
G01 X-33.4231 Y3.2941 
G01 X-33.2682 Y3.3582 
G01 X-33.1038 Y3.3909 
G01 X-31.7170 Y3.3909 
G01 X-31.5526 Y3.3582 
G01 X-31.3977 Y3.2941 
G01 X-31.2584 Y3.2009 
G01 X-31.1399 Y3.0824 
G01 X-31.0467 Y2.9430 
G01 X-30.9826 Y2.7882 
G01 X-30.9499 Y2.6238 
G01 X-30.9499 Y2.4562 
G01 X-30.9826 Y2.2918 
G01 X-31.0467 Y2.1369 
G01 X-31.1399 Y1.9976 
G01 X-31.2584 Y1.8791 
G01 X-31.3977 Y1.7859 
G01 X-31.5526 Y1.7218 
G01 X-31.7170 Y1.6891 
G00 Z2.5400 
G00 X-44.3213 Y24.9273 
G01 Z-0.1778 F254.00 
G01 X-44.3213 Y25.8727 F508.00 
G01 X-43.6527 Y26.5413 
G01 X-42.7073 Y26.5413 
G01 X-42.0387 Y25.8727 
G01 X-42.0387 Y24.9273 
G01 X-42.7073 Y24.2587 
G01 X-43.6527 Y24.2587 
G01 X-44.3213 Y24.9273 
G00 Z2.5400 
G00 X-30.4013 Y27.4465 
G01 Z-0.1778 F254.00 
G01 X-30.4013 Y28.4335 F508.00 
G01 X-29.7035 Y29.1313 
G01 X-28.7165 Y29.1313 
G01 X-28.0187 Y28.4335 
G01 X-28.0187 Y27.4465 
G01 X-28.7165 Y26.7487 
G01 X-29.7035 Y26.7487 
G01 X-30.4013 Y27.4465 
G00 Z2.5400 
G00 X-25.2713 Y27.4673 
G01 Z-0.1778 F254.00 
G01 X-25.2713 Y28.4127 F508.00 
G01 X-24.6027 Y29.0813 
G01 X-23.6573 Y29.0813 
G01 X-22.9887 Y28.4127 
G01 X-22.9887 Y27.4673 
G01 X-23.6573 Y26.7987 
G01 X-24.6027 Y26.7987 
G01 X-25.2713 Y27.4673 
G00 Z2.5400 
G00 X-28.4335 Y48.1813 
G01 Z-0.1778 F254.00 
G01 X-27.4465 Y48.1813 F508.00 
G01 X-26.7487 Y47.4835 
G01 X-26.7487 Y46.4965 
G01 X-27.4465 Y45.7987 
G01 X-28.4335 Y45.7987 
G01 X-28.8755 Y46.2407 
G01 X-40.3296 Y46.2407 
G01 X-42.0387 Y44.5316 
G01 X-42.0387 Y43.9773 
G01 X-42.7073 Y43.3087 
G01 X-43.6527 Y43.3087 
G01 X-44.3213 Y43.9773 
G01 X-44.3213 Y44.9227 
G01 X-43.6527 Y45.5913 
G01 X-43.0984 Y45.5913 
G01 X-41.1177 Y47.5720 
G01 X-40.9949 Y47.6540 
G01 X-40.8586 Y47.7105 
G01 X-40.7138 Y47.7393 
G01 X-28.8755 Y47.7393 
G01 X-28.4335 Y48.1813 
G00 Z2.5400 
G00 X-24.0013 Y46.5173 
G01 Z-0.1778 F254.00 
G01 X-24.0013 Y47.4627 F508.00 
G01 X-23.3327 Y48.1313 
G01 X-22.3873 Y48.1313 
G01 X-21.7187 Y47.4627 
G01 X-21.7187 Y46.5173 
G01 X-22.1107 Y46.1253 
G01 X-22.1107 Y46.0304 
G01 X-20.5707 Y44.4904 
G01 X-20.4250 Y44.5135 
G01 X-14.4961 Y44.5135 
G01 X-14.2888 Y44.4807 
G01 X-14.0892 Y44.4158 
G01 X-13.9022 Y44.3205 
G01 X-13.7324 Y44.1971 
G01 X-13.5840 Y44.0487 
G01 X-9.6015 Y40.0662 
G01 X-4.9445 Y40.0470 
G01 X-4.7374 Y40.0133 
G01 X-4.5380 Y39.9476 
G01 X-4.3514 Y39.8515 
G01 X-4.1821 Y39.7274 
G01 X-4.0343 Y39.5784 
G01 X-3.9116 Y39.4081 
G01 X-3.8171 Y39.2207 
G01 X-3.7531 Y39.0208 
G01 X-3.7211 Y38.8133 
G01 X-3.7219 Y38.6034 
G01 X-3.7556 Y38.3963 
G01 X-3.8213 Y38.1969 
G01 X-3.9174 Y38.0103 
G01 X-4.0415 Y37.8410 
G01 X-4.1905 Y37.6932 
G01 X-4.3608 Y37.5705 
G01 X-4.5482 Y37.4760 
G01 X-4.7481 Y37.4120 
G01 X-4.9556 Y37.3800 
G01 X-10.1585 Y37.4015 
G01 X-10.2611 Y37.4015 
G01 X-10.2638 Y37.4019 
G01 X-10.2666 Y37.4019 
G01 X-10.3671 Y37.4183 
G01 X-10.4684 Y37.4343 
G01 X-10.4710 Y37.4352 
G01 X-10.4737 Y37.4356 
G01 X-10.5707 Y37.4676 
G01 X-10.6680 Y37.4992 
G01 X-10.6731 Y37.5013 
G01 X-10.7640 Y37.5481 
G01 X-10.8550 Y37.5945 
G01 X-10.8597 Y37.5974 
G01 X-10.9420 Y37.6577 
G01 X-11.0248 Y37.7179 
G01 X-11.0290 Y37.7215 
G01 X-11.1008 Y37.7939 
G01 X-15.1535 Y41.8465 
G01 X-19.7676 Y41.8465 
G01 X-26.6065 Y35.0076 
G01 X-26.6065 Y34.8534 
G01 X-26.5987 Y34.8456 
G01 X-26.5987 Y33.7344 
G01 X-27.3844 Y32.9487 
G01 X-28.4956 Y32.9487 
G01 X-29.2813 Y33.7344 
G01 X-29.2813 Y34.8456 
G01 X-29.2735 Y34.8534 
G01 X-29.2735 Y35.6650 
G01 X-29.2407 Y35.8723 
G01 X-29.1758 Y36.0719 
G01 X-29.0805 Y36.2589 
G01 X-28.9571 Y36.4287 
G01 X-28.8087 Y36.5771 
G01 X-21.7928 Y43.5931 
G01 X-23.4420 Y45.2423 
G01 X-23.5240 Y45.3651 
G01 X-23.5805 Y45.5014 
G01 X-23.6093 Y45.6462 
G01 X-23.6093 Y46.1253 
G01 X-24.0013 Y46.5173 
G00 Z2.5400 
G00 X-6.2963 Y28.4562 
G01 Z-0.1778 F254.00 
G01 X-6.2963 Y28.6516 F508.00 
G01 X-6.2657 Y28.8446 
G01 X-6.2054 Y29.0304 
G01 X-6.1167 Y29.2045 
G01 X-6.0018 Y29.3626 
G01 X-5.8637 Y29.5007 
G01 X-5.7056 Y29.6156 
G01 X-5.5315 Y29.7043 
G01 X-5.3457 Y29.7646 
G01 X-5.1527 Y29.7952 
G01 X-4.9573 Y29.7952 
G01 X-4.7643 Y29.7646 
G01 X-4.5785 Y29.7043 
G01 X-4.4044 Y29.6156 
G01 X-4.2463 Y29.5007 
G01 X-4.1082 Y29.3626 
G01 X-3.9933 Y29.2045 
G01 X-3.9046 Y29.0304 
G01 X-3.8443 Y28.8446 
G01 X-3.8137 Y28.6516 
G01 X-3.8137 Y28.4562 
G01 X-3.8443 Y28.2632 
G01 X-3.9046 Y28.0774 
G01 X-3.9933 Y27.9033 
G01 X-4.1082 Y27.7452 
G01 X-4.2463 Y27.6071 
G01 X-4.4044 Y27.4922 
G01 X-4.5785 Y27.4035 
G01 X-4.7643 Y27.3432 
G01 X-4.9573 Y27.3126 
G01 X-5.1527 Y27.3126 
G01 X-5.3457 Y27.3432 
G01 X-5.5315 Y27.4035 
G01 X-5.7056 Y27.4922 
G01 X-5.8637 Y27.6071 
G01 X-6.0018 Y27.7452 
G01 X-6.1167 Y27.9033 
G01 X-6.2054 Y28.0774 
G01 X-6.2657 Y28.2632 
G01 X-6.2963 Y28.4562 
G00 Z2.5400 
G00 X-6.2963 Y33.5362 
G01 Z-0.1778 F254.00 
G01 X-6.2963 Y33.7316 F508.00 
G01 X-6.2657 Y33.9246 
G01 X-6.2054 Y34.1104 
G01 X-6.1167 Y34.2845 
G01 X-6.0018 Y34.4426 
G01 X-5.8637 Y34.5807 
G01 X-5.7056 Y34.6956 
G01 X-5.5315 Y34.7843 
G01 X-5.3457 Y34.8446 
G01 X-5.1527 Y34.8752 
G01 X-4.9573 Y34.8752 
G01 X-4.7643 Y34.8446 
G01 X-4.5785 Y34.7843 
G01 X-4.4044 Y34.6956 
G01 X-4.2463 Y34.5807 
G01 X-4.1082 Y34.4426 
G01 X-3.9933 Y34.2845 
G01 X-3.9046 Y34.1104 
G01 X-3.8443 Y33.9246 
G01 X-3.8137 Y33.7316 
G01 X-3.8137 Y33.5362 
G01 X-3.8443 Y33.3432 
G01 X-3.9046 Y33.1574 
G01 X-3.9933 Y32.9833 
G01 X-4.1082 Y32.8252 
G01 X-4.2463 Y32.6871 
G01 X-4.4044 Y32.5722 
G01 X-4.5785 Y32.4835 
G01 X-4.7643 Y32.4232 
G01 X-4.9573 Y32.3926 
G01 X-5.1527 Y32.3926 
G01 X-5.3457 Y32.4232 
G01 X-5.5315 Y32.4835 
G01 X-5.7056 Y32.5722 
G01 X-5.8637 Y32.6871 
G01 X-6.0018 Y32.8252 
G01 X-6.1167 Y32.9833 
G01 X-6.2054 Y33.1574 
G01 X-6.2657 Y33.3432 
G01 X-6.2963 Y33.5362 
G00 Z2.5400 
G00 X-21.5113 Y6.4915 
G01 Z-0.1778 F254.00 
G01 X-21.5113 Y7.4785 F508.00 
G01 X-20.8134 Y8.1763 
G01 X-19.8265 Y8.1763 
G01 X-19.1287 Y7.4785 
G01 X-19.1287 Y6.4915 
G01 X-19.8265 Y5.7937 
G01 X-20.8134 Y5.7937 
G01 X-21.5113 Y6.4915 
G00 Z2.5400 
G00 X-29.5625 Y5.9309 
G01 Z-0.1778 F254.00 
G01 X-28.8575 Y5.9309 F508.00 
G01 X-28.3591 Y5.4325 
G01 X-28.3591 Y5.2888 
G01 X-26.9946 Y3.9243 
G01 X-26.2647 Y3.9243 
G01 X-25.8727 Y4.3163 
G01 X-24.9273 Y4.3163 
G01 X-24.2587 Y3.6477 
G01 X-24.2587 Y2.7023 
G01 X-24.9273 Y2.0337 
G01 X-25.8727 Y2.0337 
G01 X-26.2647 Y2.4257 
G01 X-27.3788 Y2.4257 
G01 X-27.5236 Y2.4545 
G01 X-27.6599 Y2.5110 
G01 X-27.7827 Y2.5930 
G01 X-29.4188 Y4.2291 
G01 X-29.5625 Y4.2291 
G01 X-29.6640 Y4.3307 
G01 X-31.3906 Y4.3307 
G01 X-31.3977 Y4.3259 
G01 X-31.5526 Y4.2618 
G01 X-31.7170 Y4.2291 
G01 X-33.1038 Y4.2291 
G01 X-33.2682 Y4.2618 
G01 X-33.4231 Y4.3259 
G01 X-33.5624 Y4.4191 
G01 X-33.6809 Y4.5376 
G01 X-33.7741 Y4.6769 
G01 X-33.8382 Y4.8318 
G01 X-33.8709 Y4.9962 
G01 X-33.8709 Y5.1638 
G01 X-33.8382 Y5.3282 
G01 X-33.7741 Y5.4831 
G01 X-33.6809 Y5.6224 
G01 X-33.5624 Y5.7409 
G01 X-33.4231 Y5.8341 
G01 X-33.2682 Y5.8982 
G01 X-33.1038 Y5.9309 
G01 X-31.7170 Y5.9309 
G01 X-31.5526 Y5.8982 
G01 X-31.3977 Y5.8341 
G01 X-31.3906 Y5.8293 
G01 X-29.6640 Y5.8293 
G01 X-29.5625 Y5.9309 
G00 Z2.5400 
G00 X-20.0013 Y18.2681 
G01 Z-0.1778 F254.00 
G01 X-20.0013 Y18.5619 F508.00 
G01 X-19.9629 Y18.8532 
G01 X-19.8869 Y19.1370 
G01 X-19.7745 Y19.4084 
G01 X-19.6276 Y19.6629 
G01 X-19.4487 Y19.8960 
G01 X-19.2410 Y20.1037 
G01 X-19.0079 Y20.2826 
G01 X-18.7534 Y20.4295 
G01 X-18.4820 Y20.5419 
G01 X-18.1982 Y20.6179 
G01 X-17.9069 Y20.6563 
G01 X-17.6131 Y20.6563 
G01 X-17.3218 Y20.6179 
G01 X-17.0380 Y20.5419 
G01 X-16.7666 Y20.4295 
G01 X-16.5121 Y20.2826 
G01 X-16.2790 Y20.1037 
G01 X-16.0713 Y19.8960 
G01 X-15.8924 Y19.6629 
G01 X-15.7455 Y19.4084 
G01 X-15.6331 Y19.1370 
G01 X-15.5571 Y18.8532 
G01 X-15.5187 Y18.5619 
G01 X-15.5187 Y18.2681 
G01 X-15.5571 Y17.9768 
G01 X-15.6331 Y17.6930 
G01 X-15.7455 Y17.4216 
G01 X-15.8924 Y17.1671 
G01 X-16.0713 Y16.9340 
G01 X-16.2790 Y16.7263 
G01 X-16.5121 Y16.5474 
G01 X-16.7666 Y16.4005 
G01 X-17.0380 Y16.2881 
G01 X-17.3218 Y16.2121 
G01 X-17.6131 Y16.1737 
G01 X-17.9069 Y16.1737 
G01 X-18.1982 Y16.2121 
G01 X-18.4820 Y16.2881 
G01 X-18.7534 Y16.4005 
G01 X-19.0079 Y16.5474 
G01 X-19.2410 Y16.7263 
G01 X-19.4487 Y16.9340 
G01 X-19.6276 Y17.1671 
G01 X-19.7745 Y17.4216 
G01 X-19.8869 Y17.6930 
G01 X-19.9629 Y17.9768 
G01 X-20.0013 Y18.2681 
G00 Z2.5400 
G00 X-55.6013 Y18.2681 
G01 Z-0.1778 F254.00 
G01 X-55.6013 Y18.5619 F508.00 
G01 X-55.5629 Y18.8532 
G01 X-55.4869 Y19.1370 
G01 X-55.3745 Y19.4084 
G01 X-55.2276 Y19.6629 
G01 X-55.0487 Y19.8960 
G01 X-54.8410 Y20.1037 
G01 X-54.6079 Y20.2826 
G01 X-54.3534 Y20.4295 
G01 X-54.0820 Y20.5419 
G01 X-53.7982 Y20.6179 
G01 X-53.5069 Y20.6563 
G01 X-53.2131 Y20.6563 
G01 X-52.9218 Y20.6179 
G01 X-52.6380 Y20.5419 
G01 X-52.3666 Y20.4295 
G01 X-52.1121 Y20.2826 
G01 X-51.8790 Y20.1037 
G01 X-51.6713 Y19.8960 
G01 X-51.4924 Y19.6629 
G01 X-51.3455 Y19.4084 
G01 X-51.2331 Y19.1370 
G01 X-51.1571 Y18.8532 
G01 X-51.1187 Y18.5619 
G01 X-51.1187 Y18.2681 
G01 X-51.1571 Y17.9768 
G01 X-51.2331 Y17.6930 
G01 X-51.3455 Y17.4216 
G01 X-51.4924 Y17.1671 
G01 X-51.6713 Y16.9340 
G01 X-51.8790 Y16.7263 
G01 X-52.1121 Y16.5474 
G01 X-52.3666 Y16.4005 
G01 X-52.6380 Y16.2881 
G01 X-52.9218 Y16.2121 
G01 X-53.2131 Y16.1737 
G01 X-53.5069 Y16.1737 
G01 X-53.7982 Y16.2121 
G01 X-54.0820 Y16.2881 
G01 X-54.3534 Y16.4005 
G01 X-54.6079 Y16.5474 
G01 X-54.8410 Y16.7263 
G01 X-55.0487 Y16.9340 
G01 X-55.2276 Y17.1671 
G01 X-55.3745 Y17.4216 
G01 X-55.4869 Y17.6930 
G01 X-55.5629 Y17.9768 
G01 X-55.6013 Y18.2681 
G00 Z2.5400 
G00 X-20.0013 Y37.3181 
G01 Z-0.1778 F254.00 
G01 X-20.0013 Y37.6119 F508.00 
G01 X-19.9629 Y37.9032 
G01 X-19.8869 Y38.1870 
G01 X-19.7745 Y38.4584 
G01 X-19.6276 Y38.7129 
G01 X-19.4487 Y38.9460 
G01 X-19.2410 Y39.1537 
G01 X-19.0079 Y39.3326 
G01 X-18.7534 Y39.4795 
G01 X-18.4820 Y39.5919 
G01 X-18.1982 Y39.6679 
G01 X-17.9069 Y39.7063 
G01 X-17.6131 Y39.7063 
G01 X-17.3218 Y39.6679 
G01 X-17.0380 Y39.5919 
G01 X-16.7666 Y39.4795 
G01 X-16.5121 Y39.3326 
G01 X-16.2790 Y39.1537 
G01 X-16.0713 Y38.9460 
G01 X-15.8924 Y38.7129 
G01 X-15.7455 Y38.4584 
G01 X-15.6331 Y38.1870 
G01 X-15.5571 Y37.9032 
G01 X-15.5187 Y37.6119 
G01 X-15.5187 Y37.3181 
G01 X-15.5571 Y37.0268 
G01 X-15.6331 Y36.7430 
G01 X-15.7455 Y36.4716 
G01 X-15.8924 Y36.2171 
G01 X-16.0713 Y35.9840 
G01 X-16.2790 Y35.7763 
G01 X-16.5121 Y35.5974 
G01 X-16.7666 Y35.4505 
G01 X-17.0380 Y35.3381 
G01 X-17.3218 Y35.2621 
G01 X-17.6131 Y35.2237 
G01 X-17.9069 Y35.2237 
G01 X-18.1982 Y35.2621 
G01 X-18.4820 Y35.3381 
G01 X-18.7534 Y35.4505 
G01 X-19.0079 Y35.5974 
G01 X-19.2410 Y35.7763 
G01 X-19.4487 Y35.9840 
G01 X-19.6276 Y36.2171 
G01 X-19.7745 Y36.4716 
G01 X-19.8869 Y36.7430 
G01 X-19.9629 Y37.0268 
G01 X-20.0013 Y37.3181 
G00 Z2.5400 
G00 X-55.6013 Y37.3181 
G01 Z-0.1778 F254.00 
G01 X-55.6013 Y37.6119 F508.00 
G01 X-55.5629 Y37.9032 
G01 X-55.4869 Y38.1870 
G01 X-55.3745 Y38.4584 
G01 X-55.2276 Y38.7129 
G01 X-55.0487 Y38.9460 
G01 X-54.8410 Y39.1537 
G01 X-54.6079 Y39.3326 
G01 X-54.3534 Y39.4795 
G01 X-54.0820 Y39.5919 
G01 X-53.7982 Y39.6679 
G01 X-53.5069 Y39.7063 
G01 X-53.2131 Y39.7063 
G01 X-52.9218 Y39.6679 
G01 X-52.6380 Y39.5919 
G01 X-52.3666 Y39.4795 
G01 X-52.1121 Y39.3326 
G01 X-51.8790 Y39.1537 
G01 X-51.6713 Y38.9460 
G01 X-51.4924 Y38.7129 
G01 X-51.3455 Y38.4584 
G01 X-51.2331 Y38.1870 
G01 X-51.1571 Y37.9032 
G01 X-51.1187 Y37.6119 
G01 X-51.1187 Y37.3181 
G01 X-51.1571 Y37.0268 
G01 X-51.2331 Y36.7430 
G01 X-51.3455 Y36.4716 
G01 X-51.4924 Y36.2171 
G01 X-51.6713 Y35.9840 
G01 X-51.8790 Y35.7763 
G01 X-52.1121 Y35.5974 
G01 X-52.3666 Y35.4505 
G01 X-52.6380 Y35.3381 
G01 X-52.9218 Y35.2621 
G01 X-53.2131 Y35.2237 
G01 X-53.5069 Y35.2237 
G01 X-53.7982 Y35.2621 
G01 X-54.0820 Y35.3381 
G01 X-54.3534 Y35.4505 
G01 X-54.6079 Y35.5974 
G01 X-54.8410 Y35.7763 
G01 X-55.0487 Y35.9840 
G01 X-55.2276 Y36.2171 
G01 X-55.3745 Y36.4716 
G01 X-55.4869 Y36.7430 
G01 X-55.5629 Y37.0268 
G01 X-55.6013 Y37.3181 
G00 Z2.5400 
G00 X-5.9237 Y14.3310 
G01 Z-0.1778 F254.00 
G01 X-5.7539 Y14.4544 F508.00 
G01 X-5.5669 Y14.5497 
G01 X-5.3673 Y14.6146 
G01 X-5.1600 Y14.6474 
G01 X-4.9500 Y14.6474 
G01 X-4.7427 Y14.6146 
G01 X-4.5431 Y14.5497 
G01 X-4.3561 Y14.4544 
G01 X-4.1863 Y14.3310 
G01 X-4.0379 Y14.1826 
G01 X-3.9145 Y14.0128 
G01 X-3.8192 Y13.8258 
G01 X-3.7543 Y13.6262 
G01 X-3.7215 Y13.4189 
G01 X-3.7215 Y13.2089 
G01 X-3.7543 Y13.0016 
G01 X-3.8192 Y12.8020 
G01 X-3.9145 Y12.6150 
G01 X-4.0379 Y12.4452 
G01 X-14.1768 Y2.3063 
G01 X-14.3252 Y2.1579 
G01 X-14.4950 Y2.0345 
G01 X-14.6820 Y1.9392 
G01 X-14.8816 Y1.8743 
G01 X-15.0889 Y1.8415 
G01 X-20.4250 Y1.8415 
G01 X-20.6323 Y1.8743 
G01 X-20.8319 Y1.9392 
G01 X-21.0189 Y2.0345 
G01 X-21.1887 Y2.1579 
G01 X-21.3371 Y2.3063 
G01 X-21.4605 Y2.4761 
G01 X-21.5558 Y2.6631 
G01 X-21.6207 Y2.8627 
G01 X-21.6535 Y3.0700 
G01 X-21.6535 Y3.2800 
G01 X-21.6207 Y3.4873 
G01 X-21.5558 Y3.6869 
G01 X-21.4605 Y3.8739 
G01 X-21.3371 Y4.0437 
G01 X-21.1887 Y4.1921 
G01 X-21.0189 Y4.3155 
G01 X-20.8319 Y4.4108 
G01 X-20.6323 Y4.4757 
G01 X-20.4250 Y4.5085 
G01 X-15.7463 Y4.5085 
G01 X-5.9237 Y14.3310 
G00 Z2.5400 
G00 X-78.1985 Y24.7546 
G01 Z-0.1778 F254.00 
G01 X-78.2103 Y24.7342 F508.00 
G01 X-78.2429 Y24.7015 
G01 X-78.1454 Y24.7015 
G01 X-78.1985 Y24.7546 
G00 Z2.5400 
G00 X-76.1870 Y24.8014 
G01 Z-0.1778 F254.00 
G01 X-76.1870 Y24.8285 F508.00 
G01 X-76.6676 Y24.8285 
G01 X-76.7946 Y24.7015 
G01 X-76.1602 Y24.7015 
G01 X-76.1870 Y24.8014 
G00 Z2.5400 
G00 X-76.7715 Y33.6954 
G01 Z-0.1778 F254.00 
G01 X-76.7715 Y33.7185 F508.00 
