(.../pcb-gcode-3.6.0.4/pcb-gcode.ulp)
(Copyright 2005 - 2012 by John Johnson)
(See readme.txt for licensing terms.)
(This file generated from the board:)
(.../reflowOvenController/hardware/ReflowController.brd)
(Current profile is .../pcb-gcode-3.6.0.4/profiles/emc.pp  )
(This file generated 7/10/16 12:31 PM)
(Settings from pcb-machine.h)
(  Tool Size)
(0.1778 )
(Z Axis Settings)
(  High     Up        Down     Drill)
(12.7000 	2.5400 	-0.1778 	-0.8128 )
(spindle on time = 3.0000)
(milling depth = -0.2540)
(text depth = -0.1270)
(tool change at 12.7000 15.2400 25.4000 )
(feed rate xy = F508.00 )
(feed rate z  = F254.00 )
(Settings from pcb-defaults.h)
(isolate min = 0.0254)
(isolate max = 0.5080)
(isolate step = 0.1270)
(Generated bottom outlines, bottom drill, )
(Unit of measure: mm)
( Tool|       Size       |  Min Sub |  Max Sub |   Count )
( T01 | 3.200mm 0.1260in | 0.0000in | 0.0000in |       0 )
( T02 | 0.400mm 0.0157in | 0.0000in | 0.0000in |       0 )
( T03 | 0.600mm 0.0236in | 0.0000in | 0.0000in |       0 )
( T04 | 0.800mm 0.0315in | 0.0000in | 0.0000in |       0 )
( T05 | 0.813mm 0.0320in | 0.0000in | 0.0000in |       0 )
( T06 | 0.900mm 0.0354in | 0.0000in | 0.0000in |       0 )
( T07 | 1.000mm 0.0394in | 0.0000in | 0.0000in |       0 )
( T08 | 1.016mm 0.0400in | 0.0000in | 0.0000in |       0 )
( T09 | 1.300mm 0.0512in | 0.0000in | 0.0000in |       0 )
( T10 | 2.500mm 0.0984in | 0.0000in | 0.0000in |       0 )
(Metric Mode)
G21
(Absolute Coordinates)
G90
M05
G00 Z25.4000 
G00 X12.7000 Y15.2400 
M06 T01 (3.2000 )
G01 Z0.0000 F254.00 
M06 T01 (3.2000 )
G00 Z2.5400 
M03
G04 P3.000000
G82 X-97.0000 Y47.0000 Z-0.8128 F254.00 R2.5400 P1.000000
G82 X-97.0000 Y3.0000 
G82 X-3.0000 Y47.0000 
G82 X-3.0000 Y3.0000 
M05
G00 Z25.4000 
M06 T02 (0.4000 )
G01 Z0.0000 F254.00 
M06 T02 (0.4000 )
G00 Z2.5400 
M03
G04 P3.000000
G82 X-44.4500 Y7.6200 Z-0.8128 F254.00 R2.5400 P1.000000
G82 X-57.1500 Y2.5400 
G82 X-62.2300 Y46.9900 
G82 X-65.4050 Y24.1300 
G82 X-66.0400 Y41.9100 
G82 X-68.5800 Y2.5400 
G82 X-68.5800 Y29.2100 
G82 X-70.4850 Y33.0200 
G82 X-73.0250 Y26.6700 
G82 X-74.9300 Y41.9100 
G82 X-78.7400 Y2.5400 
G82 X-80.9625 Y33.0200 
G82 X-82.5500 Y17.7800 
G82 X-82.5500 Y22.8600 
G82 X-84.4550 Y20.3200 
G82 X-88.9000 Y2.5400 
G82 X-89.5350 Y10.1600 
G82 X-89.5350 Y22.8600 
G82 X-90.1700 Y34.9250 
G82 X-90.1700 Y29.5275 
G82 X-92.0750 Y46.9900 
M05
G00 Z25.4000 
M06 T03 (0.6000 )
G01 Z0.0000 F254.00 
M06 T03 (0.6000 )
G00 Z2.5400 
M03
G04 P3.000000
G82 X-80.0100 Y27.3050 Z-0.8128 F254.00 R2.5400 P1.000000
M05
G00 Z25.4000 
M06 T04 (0.8000 )
G01 Z0.0000 F254.00 
M06 T04 (0.8000 )
G00 Z2.5400 
M03
G04 P3.000000
G82 X-62.2300 Y33.0200 Z-0.8128 F254.00 R2.5400 P1.000000
G82 X-62.2300 Y35.5600 
G82 X-62.2300 Y38.1000 
G82 X-62.2300 Y40.6400 
G82 X-62.2300 Y43.1800 
G82 X-62.2300 Y15.2400 
G82 X-62.2300 Y17.7800 
G82 X-62.2300 Y20.3200 
G82 X-62.2300 Y22.8600 
G82 X-62.2300 Y25.4000 
G82 X-62.2300 Y27.9400 
G82 X-62.2300 Y30.4800 
G82 X-77.4700 Y33.0200 
G82 X-77.4700 Y35.5600 
G82 X-77.4700 Y38.1000 
G82 X-77.4700 Y40.6400 
G82 X-77.4700 Y43.1800 
G82 X-77.4700 Y15.2400 
G82 X-77.4700 Y17.7800 
G82 X-77.4700 Y20.3200 
G82 X-77.4700 Y22.8600 
G82 X-77.4700 Y25.4000 
G82 X-77.4700 Y27.9400 
G82 X-77.4700 Y30.4800 
M05
G00 Z25.4000 
M06 T05 (0.8128 )
G01 Z0.0000 F254.00 
M06 T05 (0.8128 )
G00 Z2.5400 
M03
G04 P3.000000
G82 X-33.0200 Y5.0800 Z-0.8128 F254.00 R2.5400 P1.000000
G82 X-33.0200 Y7.6200 
G82 X-33.0200 Y2.5400 
G82 X-40.6400 Y5.0800 
G82 X-40.6400 Y7.6200 
G82 X-40.6400 Y2.5400 
G82 X-29.2100 Y5.0800 
G82 X-29.2100 Y7.6200 
M05
G00 Z25.4000 
M06 T06 (0.9000 )
G01 Z0.0000 F254.00 
M06 T06 (0.9000 )
G00 Z2.5400 
M03
G04 P3.000000
G82 X-33.0200 Y44.4500 Z-0.8128 F254.00 R2.5400 P1.000000
G82 X-33.0200 Y25.4000 
G82 X-43.1800 Y44.4500 
G82 X-43.1800 Y25.4000 
G82 X-20.3200 Y3.1750 
G82 X-20.3200 Y6.9850 
G82 X-22.8600 Y46.9900 
G82 X-24.1300 Y27.9400 
G82 X-25.4000 Y3.1750 
G82 X-25.4000 Y6.9850 
G82 X-27.9400 Y46.9900 
G82 X-29.2100 Y27.9400 
M05
G00 Z25.4000 
M06 T07 (1.0000 )
G01 Z0.0000 F254.00 
M06 T07 (1.0000 )
G00 Z2.5400 
M03
G04 P3.000000
G82 X-33.0200 Y34.2900 Z-0.8128 F254.00 R2.5400 P1.000000
G82 X-33.0200 Y15.2400 
G82 X-40.6400 Y34.2900 
G82 X-40.6400 Y15.2400 
G82 X-43.1800 Y34.2900 
G82 X-43.1800 Y15.2400 
G82 X-27.9400 Y34.2900 
G82 X-27.9400 Y15.2400 
M05
G00 Z25.4000 
M06 T08 (1.0160 )
G01 Z0.0000 F254.00 
M06 T08 (1.0160 )
G00 Z2.5400 
M03
G04 P3.000000
G82 X-64.7700 Y7.6200 Z-0.8128 F254.00 R2.5400 P1.000000
G82 X-64.7700 Y10.1600 
G82 X-67.3100 Y7.6200 
G82 X-67.3100 Y10.1600 
G82 X-69.8500 Y7.6200 
G82 X-69.8500 Y10.1600 
G82 X-72.3900 Y7.6200 
G82 X-72.3900 Y10.1600 
G82 X-74.9300 Y7.6200 
G82 X-74.9300 Y10.1600 
G82 X-85.0900 Y31.7500 
G82 X-85.0900 Y34.2900 
G82 X-85.0900 Y36.8300 
G82 X-85.0900 Y39.3700 
M05
G00 Z25.4000 
M06 T09 (1.3000 )
G01 Z0.0000 F254.00 
M06 T09 (1.3000 )
G00 Z2.5400 
M03
G04 P3.000000
G82 X-5.0550 Y33.6339 Z-0.8128 F254.00 R2.5400 P1.000000
G82 X-5.0550 Y38.7139 
G82 X-5.0550 Y13.3139 
G82 X-5.0550 Y18.3939 
G82 X-5.0550 Y23.4739 
G82 X-5.0550 Y28.5539 
G82 X-95.2750 Y33.6761 
G82 X-95.2750 Y38.7561 
G82 X-95.2750 Y13.3561 
G82 X-95.2750 Y18.4361 
G82 X-95.2750 Y23.5161 
G82 X-95.2750 Y28.5961 
M05
G00 Z25.4000 
M06 T10 (2.5000 )
G01 Z0.0000 F254.00 
M06 T10 (2.5000 )
G00 Z2.5400 
M03
G04 P3.000000
G82 X-53.3600 Y37.4650 Z-0.8128 F254.00 R2.5400 P1.000000
G82 X-53.3600 Y18.4150 
G82 X-17.7600 Y37.4650 
G82 X-17.7600 Y18.4150 
T01 
G00 Z12.7000 
M05
M02
